(.../pcb-gcode-3_6_0_4/pcb-gcode.ulp)
(Copyright 2005 - 2012 by John Johnson)
(See readme.txt for licensing terms.)
(This file generated from the board:)
(.../bearded-avenger/Cluster/Power/Power.brd)
(Current profile is .../pcb-gcode-3.6.2.4/profiles/generic.pp  )
(This file generated 2019-05-09 12:36)
(Settings from pcb-machine.h)
(  Tool Size)
(0.0070  )
(Z Axis Settings)
(  High     Up        Down     Drill)
(0.5000  	0.1000  	-0.0070 	-0.0320 )
(spindle on time = 3.0000)
(milling depth = -0.0100)
(text depth = -0.0050)
(tool change at 0.5000  0.6000  1.0000  )
(feed rate xy = F20    )
(feed rate z  = F10    )
(Settings from pcb-defaults.h)
(isolate min = 0.0010)
(isolate max = 0.0200)
(isolate step = 0.0050)
(Generated bottom outlines, bottom drill, )
(Unit of measure: inch)
( Tool|       Size       |  Min Sub |  Max Sub |   Count )
( T01 | 5.000mm 0.1969in | 0.0000in | 0.0000in |       0 )
( T02 | 0.700mm 0.0276in | 0.0000in | 0.0000in |       0 )
( T03 | 0.813mm 0.0320in | 0.0000in | 0.0000in |       0 )
( T04 | 0.900mm 0.0354in | 0.0000in | 0.0000in |       0 )
( T05 | 1.000mm 0.0394in | 0.0000in | 0.0000in |       0 )
( T06 | 2.300mm 0.0906in | 0.0000in | 0.0000in |       0 )
(Inch Mode)
G20
(Absolute Coordinates)
G90
M05
G00 Z1.0000  
G00 X0.5000  Y0.6000  
M06 T01  ; 0.1969  
G01 Z0.0000  F10    
M06 T01  ; 0.1969  
G00 Z0.1000  
M03
G04 P3.000000
G82 X-0.1500 Y1.5500  Z-0.0320 F10    R0.1000  P1.000000
G82 X-0.1500 Y3.1000  
G82 X-3.1000 Y1.6000  
G82 X-3.1000 Y3.1000  
M05
G00 Z1.0000  
M06 T02  ; 0.0276  
G01 Z0.0000  F10    
M06 T02  ; 0.0276  
G00 Z0.1000  
M03
G04 P3.000000
G82 X-1.2492 Y2.5000  Z-0.0320 F10    R0.1000  P1.000000
G82 X-1.2992 Y2.1500  
G82 X-1.8508 Y2.5000  
G82 X-1.9008 Y2.1500  
G82 X-1.9492 Y2.5000  
G82 X-1.9992 Y2.1500  
G82 X-2.4508 Y2.1500  
G82 X-2.5492 Y2.1500  
G82 X-2.5508 Y2.5000  
G82 X-2.6492 Y2.5000  
G82 X-0.4508 Y2.5000  
G82 X-0.5492 Y2.5000  
G82 X-0.5508 Y2.1500  
G82 X-0.6492 Y2.1500  
G82 X-1.1508 Y2.5000  
G82 X-1.2008 Y2.1500  
M05
G00 Z1.0000  
M06 T03  ; 0.0320  
G01 Z0.0000  F10    
M06 T03  ; 0.0320  
G00 Z0.1000  
M03
G04 P3.000000
G82 X-3.0500 Y1.9500  Z-0.0320 F10    R0.1000  P1.000000
G82 X-3.0500 Y2.0500  
M05
G00 Z1.0000  
M06 T04  ; 0.0354  
G01 Z0.0000  F10    
M06 T04  ; 0.0354  
G00 Z0.1000  
M03
G04 P3.000000
G82 X-1.2394 Y2.7000  Z-0.0320 F10    R0.1000  P1.000000
G82 X-1.2894 Y1.9500  
G82 X-1.3378 Y2.7000  
G82 X-1.3878 Y1.9500  
G82 X-1.7622 Y2.7000  
G82 X-1.8122 Y1.9500  
G82 X-1.8606 Y2.7000  
G82 X-1.9106 Y1.9500  
G82 X-1.9394 Y2.7000  
G82 X-1.9894 Y1.9500  
G82 X-2.0378 Y2.7000  
G82 X-2.0878 Y1.9500  
G82 X-2.4622 Y2.7000  
G82 X-2.5122 Y1.9500  
G82 X-2.5606 Y2.7000  
G82 X-2.6106 Y1.9500  
G82 X-2.6394 Y2.7000  
G82 X-2.6894 Y1.9500  
G82 X-2.7378 Y2.7000  
G82 X-2.7878 Y1.9500  
G82 X-2.8000 Y2.1516  
G82 X-2.8000 Y2.3484  
G82 X-0.3000 Y2.1516  
G82 X-0.3000 Y2.3484  
G82 X-3.0500 Y2.1500  
G82 X-3.0500 Y2.4500  
G82 X-0.3622 Y2.7000  
G82 X-0.4122 Y1.9500  
G82 X-0.4606 Y2.7000  
G82 X-0.5106 Y1.9500  
G82 X-0.5394 Y2.7000  
G82 X-0.5894 Y1.9500  
G82 X-0.6378 Y2.7000  
G82 X-0.6878 Y1.9500  
G82 X-1.0622 Y2.7000  
G82 X-1.1122 Y1.9500  
G82 X-1.1606 Y2.7000  
G82 X-1.2106 Y1.9500  
M05
G00 Z1.0000  
M06 T05  ; 0.0394  
G01 Z0.0000  F10    
M06 T05  ; 0.0394  
G00 Z0.1000  
M03
G04 P3.000000
G82 X-1.3500 Y2.5000  Z-0.0320 F10    R0.1000  P1.000000
G82 X-1.4000 Y2.1500  
G82 X-1.7500 Y2.5000  
G82 X-1.8000 Y2.1500  
G82 X-0.2000 Y2.5000  
G82 X-2.0500 Y2.5000  
G82 X-2.1000 Y2.1500  
G82 X-2.4500 Y2.5000  
G82 X-2.7500 Y2.5000  
G82 X-0.3500 Y2.5000  
G82 X-0.0500 Y2.3000  
G82 X-0.6500 Y2.5000  
G82 X-1.0500 Y2.5000  
G82 X-1.1000 Y2.1500  
M05
G00 Z1.0000  
M06 T06  ; 0.0906  
G01 Z0.0000  F10    
M06 T06  ; 0.0906  
G00 Z0.1000  
M03
G04 P3.000000
G82 X-1.4587 Y2.8067  Z-0.0320 F10    R0.1000  P1.000000
G82 X-1.5087 Y1.8433  
G82 X-1.6413 Y2.8067  
G82 X-1.6913 Y1.8433  
G82 X-2.1587 Y2.8067  
G82 X-2.2087 Y1.8433  
G82 X-2.3413 Y2.8067  
G82 X-2.3913 Y1.8433  
G82 X-0.2413 Y2.8067  
G82 X-2.8587 Y2.8067  
G82 X-2.9087 Y1.8433  
G82 X-0.2913 Y1.8433  
G82 X-0.7587 Y2.8067  
G82 X-0.8087 Y1.8433  
G82 X-0.9413 Y2.8067  
G82 X-0.9913 Y1.8433  
T01 
G00 Z0.5000  
M05
M02
