(.../pcb-gcode-3_6_0_4/pcb-gcode.ulp)
(Copyright 2005 - 2012 by John Johnson)
(See readme.txt for licensing terms.)
(This file generated from the board:)
(.../bearded-avenger/Cluster/Power/Power.brd)
(Current profile is .../pcb-gcode-3.6.2.4/profiles/generic.pp  )
(This file generated 2019-05-09 12:36)
(Settings from pcb-machine.h)
(  Tool Size)
(0.0070  )
(Z Axis Settings)
(  High     Up        Down     Drill)
(0.5000  	0.1000  	-0.0070 	-0.0320 )
(spindle on time = 3.0000)
(milling depth = -0.0100)
(text depth = -0.0050)
(tool change at 0.5000  0.6000  1.0000  )
(feed rate xy = F20    )
(feed rate z  = F10    )
(Settings from pcb-defaults.h)
(isolate min = 0.0010)
(isolate max = 0.0200)
(isolate step = 0.0050)
(Generated bottom outlines, bottom drill, )
(Unit of measure: inch)
(Inch Mode)
G20
(Absolute Coordinates)
G90
G00 X0.0000  Y0.0000  
M03
G04 P3.000000
G00 Z0.1000  
G00 X-2.9311 Y1.7771  
G01 Z-0.0070 F10    
G01 X-2.9396 Y1.7806  F20    
G01 X-2.9415 Y1.7817  
G01 X-2.9363 Y1.7765  
G01 X-2.9290 Y1.7765  
G01 X-2.9311 Y1.7771  
G00 Z0.1000  
G00 X-2.9703 Y1.8105  
G01 Z-0.0070 F10    
G01 X-2.9714 Y1.8124  F20    
G01 X-2.9749 Y1.8208  
G01 X-2.9754 Y1.8229  
G01 X-2.9754 Y1.8156  
G01 X-2.9703 Y1.8105  
G00 Z0.1000  
G00 X-1.4335 Y1.9336  
G01 Z-0.0070 F10    
G01 X-1.4375 Y1.9392  F20    
G01 X-1.4407 Y1.9454  
G01 X-1.4428 Y1.9519  
G01 X-1.4439 Y1.9588  
G01 X-1.4439 Y2.1177  
G01 X-1.4466 Y2.1214  
G01 X-1.4505 Y2.1291  
G01 X-1.4532 Y2.1372  
G01 X-1.4545 Y2.1457  
G01 X-1.4545 Y2.1543  
G01 X-1.4532 Y2.1628  
G01 X-1.4505 Y2.1709  
G01 X-1.4466 Y2.1786  
G01 X-1.4416 Y2.1855  
G01 X-1.4355 Y2.1916  
G01 X-1.4286 Y2.1966  
G01 X-1.4209 Y2.2005  
G01 X-1.4128 Y2.2032  
G01 X-1.4043 Y2.2045  
G01 X-1.3957 Y2.2045  
G01 X-1.3872 Y2.2032  
G01 X-1.3791 Y2.2005  
G01 X-1.3714 Y2.1966  
G01 X-1.3677 Y2.1939  
G01 X-1.2958 Y2.1939  
G01 X-1.2889 Y2.1928  
G01 X-1.2824 Y2.1907  
G01 X-1.2762 Y2.1875  
G01 X-1.2706 Y2.1835  
G01 X-1.2658 Y2.1786  
G01 X-1.2617 Y2.1730  
G01 X-1.2586 Y2.1668  
G01 X-1.2564 Y2.1603  
G01 X-1.2553 Y2.1535  
G01 X-1.2553 Y2.1465  
G01 X-1.2564 Y2.1397  
G01 X-1.2586 Y2.1332  
G01 X-1.2617 Y2.1270  
G01 X-1.2658 Y2.1214  
G01 X-1.2706 Y2.1165  
G01 X-1.2762 Y2.1125  
G01 X-1.2824 Y2.1093  
G01 X-1.2889 Y2.1072  
G01 X-1.2958 Y2.1061  
G01 X-1.3561 Y2.1061  
G01 X-1.3561 Y1.9804  
G01 X-1.3543 Y1.9786  
G01 X-1.3503 Y1.9730  
G01 X-1.3471 Y1.9668  
G01 X-1.3450 Y1.9603  
G01 X-1.3439 Y1.9535  
G01 X-1.3439 Y1.7439  
G01 X-0.7317 Y1.7439  
G01 X-0.7317 Y2.1149  
G01 X-0.7306 Y2.1217  
G01 X-0.7285 Y2.1283  
G01 X-0.7253 Y2.1344  
G01 X-0.7213 Y2.1400  
G01 X-0.7164 Y2.1449  
G01 X-0.6778 Y2.1835  
G01 X-0.6722 Y2.1875  
G01 X-0.6661 Y2.1907  
G01 X-0.6595 Y2.1928  
G01 X-0.6527 Y2.1939  
G01 X-0.6458 Y2.1939  
G01 X-0.6389 Y2.1928  
G01 X-0.6324 Y2.1907  
G01 X-0.6262 Y2.1875  
G01 X-0.6206 Y2.1835  
G01 X-0.6158 Y2.1786  
G01 X-0.6117 Y2.1730  
G01 X-0.6086 Y2.1668  
G01 X-0.6064 Y2.1603  
G01 X-0.6053 Y2.1535  
G01 X-0.6053 Y2.1465  
G01 X-0.6064 Y2.1397  
G01 X-0.6086 Y2.1332  
G01 X-0.6117 Y2.1270  
G01 X-0.6158 Y2.1214  
G01 X-0.6439 Y2.0932  
G01 X-0.6439 Y1.7560  
G01 X-0.6318 Y1.7439  
G01 X-0.3087 Y1.7439  
G01 X-0.3042 Y1.7446  
G01 X-0.2973 Y1.7446  
G01 X-0.2927 Y1.7439  
G01 X-0.2696 Y1.7439  
G01 X-0.2571 Y1.7564  
G01 X-0.2522 Y1.7613  
G01 X-0.2466 Y1.7653  
G01 X-0.2405 Y1.7685  
G01 X-0.2339 Y1.7706  
G01 X-0.2271 Y1.7717  
G01 X-0.1682 Y1.7717  
G01 X-0.0939 Y1.8460  
G01 X-0.0939 Y2.1941  
G01 X-0.1665 Y2.1214  
G01 X-0.1714 Y2.1165  
G01 X-0.1770 Y2.1125  
G01 X-0.1832 Y2.1093  
G01 X-0.1897 Y2.1072  
G01 X-0.1965 Y2.1061  
G01 X-0.3035 Y2.1061  
G01 X-0.3103 Y2.1072  
G01 X-0.3168 Y2.1093  
G01 X-0.3230 Y2.1125  
G01 X-0.3286 Y2.1165  
G01 X-0.3335 Y2.1214  
G01 X-0.3375 Y2.1270  
G01 X-0.3407 Y2.1332  
G01 X-0.3428 Y2.1397  
G01 X-0.3439 Y2.1465  
G01 X-0.3439 Y2.1550  
G01 X-0.3428 Y2.1618  
G01 X-0.3407 Y2.1684  
G01 X-0.3375 Y2.1746  
G01 X-0.3335 Y2.1802  
G01 X-0.3286 Y2.1850  
G01 X-0.3230 Y2.1891  
G01 X-0.3168 Y2.1922  
G01 X-0.3103 Y2.1944  
G01 X-0.3035 Y2.1954  
G01 X-0.2965 Y2.1954  
G01 X-0.2897 Y2.1944  
G01 X-0.2882 Y2.1939  
G01 X-0.2182 Y2.1939  
G01 X-0.1045 Y2.3075  
G01 X-0.1045 Y2.4044  
G01 X-0.1032 Y2.4129  
G01 X-0.1005 Y2.4210  
G01 X-0.0985 Y2.4250  
G01 X-0.0985 Y2.4750  
G01 X-0.1005 Y2.4790  
G01 X-0.1032 Y2.4871  
G01 X-0.1045 Y2.4956  
G01 X-0.1045 Y2.8274  
G01 X-0.1341 Y2.8571  
G01 X-0.1543 Y2.8571  
G01 X-0.1628 Y2.8584  
G01 X-0.1709 Y2.8611  
G01 X-0.1786 Y2.8650  
G01 X-0.1823 Y2.8677  
G01 X-0.1932 Y2.8677  
G01 X-0.2000 Y2.8688  
G01 X-0.2066 Y2.8709  
G01 X-0.2116 Y2.8735  
G01 X-0.2210 Y2.8735  
G01 X-0.2189 Y2.8729  
G01 X-0.2104 Y2.8694  
G01 X-0.2025 Y2.8648  
G01 X-0.1952 Y2.8593  
G01 X-0.1888 Y2.8528  
G01 X-0.1832 Y2.8455  
G01 X-0.1786 Y2.8376  
G01 X-0.1751 Y2.8292  
G01 X-0.1728 Y2.8203  
G01 X-0.1716 Y2.8113  
G01 X-0.1716 Y2.8021  
G01 X-0.1728 Y2.7931  
G01 X-0.1751 Y2.7842  
G01 X-0.1786 Y2.7758  
G01 X-0.1832 Y2.7678  
G01 X-0.1888 Y2.7606  
G01 X-0.1952 Y2.7541  
G01 X-0.2025 Y2.7486  
G01 X-0.2104 Y2.7440  
G01 X-0.2189 Y2.7405  
G01 X-0.2277 Y2.7381  
G01 X-0.2368 Y2.7369  
G01 X-0.2459 Y2.7369  
G01 X-0.2550 Y2.7381  
G01 X-0.2638 Y2.7405  
G01 X-0.2723 Y2.7440  
G01 X-0.2802 Y2.7486  
G01 X-0.2874 Y2.7541  
G01 X-0.2939 Y2.7606  
G01 X-0.2995 Y2.7678  
G01 X-0.3041 Y2.7758  
G01 X-0.3076 Y2.7842  
G01 X-0.3099 Y2.7931  
G01 X-0.3111 Y2.8021  
G01 X-0.3111 Y2.8113  
G01 X-0.3099 Y2.8203  
G01 X-0.3076 Y2.8292  
G01 X-0.3041 Y2.8376  
G01 X-0.2995 Y2.8455  
G01 X-0.2939 Y2.8528  
G01 X-0.2874 Y2.8593  
G01 X-0.2802 Y2.8648  
G01 X-0.2723 Y2.8694  
G01 X-0.2638 Y2.8729  
G01 X-0.2617 Y2.8735  
G01 X-0.3145 Y2.8735  
G01 X-0.3165 Y2.8714  
G01 X-0.3183 Y2.8696  
G01 X-0.3183 Y2.7182  
G01 X-0.3165 Y2.7164  
G01 X-0.3125 Y2.7108  
G01 X-0.3093 Y2.7046  
G01 X-0.3072 Y2.6981  
G01 X-0.3061 Y2.6912  
G01 X-0.3061 Y2.5323  
G01 X-0.3034 Y2.5286  
G01 X-0.2995 Y2.5209  
G01 X-0.2968 Y2.5128  
G01 X-0.2955 Y2.5043  
G01 X-0.2955 Y2.4957  
G01 X-0.2968 Y2.4872  
G01 X-0.2995 Y2.4791  
G01 X-0.3034 Y2.4714  
G01 X-0.3084 Y2.4645  
G01 X-0.3145 Y2.4584  
G01 X-0.3214 Y2.4534  
G01 X-0.3291 Y2.4495  
G01 X-0.3372 Y2.4468  
G01 X-0.3457 Y2.4455  
G01 X-0.3543 Y2.4455  
G01 X-0.3628 Y2.4468  
G01 X-0.3709 Y2.4495  
G01 X-0.3786 Y2.4534  
G01 X-0.3823 Y2.4561  
G01 X-0.4542 Y2.4561  
G01 X-0.4611 Y2.4572  
G01 X-0.4676 Y2.4593  
G01 X-0.4738 Y2.4625  
G01 X-0.4794 Y2.4665  
G01 X-0.4842 Y2.4714  
G01 X-0.4883 Y2.4770  
G01 X-0.4914 Y2.4832  
G01 X-0.4936 Y2.4897  
G01 X-0.4947 Y2.4965  
G01 X-0.4947 Y2.5035  
G01 X-0.4936 Y2.5103  
G01 X-0.4914 Y2.5168  
G01 X-0.4883 Y2.5230  
G01 X-0.4842 Y2.5286  
G01 X-0.4794 Y2.5335  
G01 X-0.4738 Y2.5375  
G01 X-0.4676 Y2.5407  
G01 X-0.4611 Y2.5428  
G01 X-0.4542 Y2.5439  
G01 X-0.3939 Y2.5439  
G01 X-0.3939 Y2.6696  
G01 X-0.3957 Y2.6714  
G01 X-0.3997 Y2.6770  
G01 X-0.4029 Y2.6832  
G01 X-0.4050 Y2.6897  
G01 X-0.4061 Y2.6965  
G01 X-0.4061 Y2.8912  
G01 X-0.4050 Y2.8981  
G01 X-0.4029 Y2.9046  
G01 X-0.4021 Y2.9061  
G01 X-1.0183 Y2.9061  
G01 X-1.0183 Y2.7182  
G01 X-1.0165 Y2.7164  
G01 X-1.0125 Y2.7108  
G01 X-1.0093 Y2.7046  
G01 X-1.0072 Y2.6981  
G01 X-1.0061 Y2.6912  
G01 X-1.0061 Y2.5323  
G01 X-1.0034 Y2.5286  
G01 X-0.9995 Y2.5209  
G01 X-0.9968 Y2.5128  
G01 X-0.9955 Y2.5043  
G01 X-0.9955 Y2.4957  
G01 X-0.9968 Y2.4872  
G01 X-0.9995 Y2.4791  
G01 X-1.0034 Y2.4714  
G01 X-1.0084 Y2.4645  
G01 X-1.0145 Y2.4584  
G01 X-1.0214 Y2.4534  
G01 X-1.0291 Y2.4495  
G01 X-1.0372 Y2.4468  
G01 X-1.0457 Y2.4455  
G01 X-1.0543 Y2.4455  
G01 X-1.0628 Y2.4468  
G01 X-1.0709 Y2.4495  
G01 X-1.0786 Y2.4534  
G01 X-1.0823 Y2.4561  
G01 X-1.1542 Y2.4561  
G01 X-1.1611 Y2.4572  
G01 X-1.1676 Y2.4593  
G01 X-1.1738 Y2.4625  
G01 X-1.1794 Y2.4665  
G01 X-1.1842 Y2.4714  
G01 X-1.1883 Y2.4770  
G01 X-1.1914 Y2.4832  
G01 X-1.1936 Y2.4897  
G01 X-1.1947 Y2.4965  
G01 X-1.1947 Y2.5035  
G01 X-1.1936 Y2.5103  
G01 X-1.1914 Y2.5168  
G01 X-1.1883 Y2.5230  
G01 X-1.1842 Y2.5286  
G01 X-1.1794 Y2.5335  
G01 X-1.1738 Y2.5375  
G01 X-1.1676 Y2.5407  
G01 X-1.1611 Y2.5428  
G01 X-1.1542 Y2.5439  
G01 X-1.0939 Y2.5439  
G01 X-1.0939 Y2.6696  
G01 X-1.0957 Y2.6714  
G01 X-1.0997 Y2.6770  
G01 X-1.1029 Y2.6832  
G01 X-1.1050 Y2.6897  
G01 X-1.1061 Y2.6965  
G01 X-1.1061 Y2.8940  
G01 X-1.1182 Y2.9061  
G01 X-1.7183 Y2.9061  
G01 X-1.7183 Y2.7182  
G01 X-1.7165 Y2.7164  
G01 X-1.7125 Y2.7108  
G01 X-1.7093 Y2.7046  
G01 X-1.7072 Y2.6981  
G01 X-1.7061 Y2.6912  
G01 X-1.7061 Y2.5323  
G01 X-1.7034 Y2.5286  
G01 X-1.6995 Y2.5209  
G01 X-1.6968 Y2.5128  
G01 X-1.6955 Y2.5043  
G01 X-1.6955 Y2.4957  
G01 X-1.6968 Y2.4872  
G01 X-1.6995 Y2.4791  
G01 X-1.7034 Y2.4714  
G01 X-1.7084 Y2.4645  
G01 X-1.7145 Y2.4584  
G01 X-1.7214 Y2.4534  
G01 X-1.7291 Y2.4495  
G01 X-1.7372 Y2.4468  
G01 X-1.7457 Y2.4455  
G01 X-1.7543 Y2.4455  
G01 X-1.7628 Y2.4468  
G01 X-1.7709 Y2.4495  
G01 X-1.7786 Y2.4534  
G01 X-1.7823 Y2.4561  
G01 X-1.8542 Y2.4561  
G01 X-1.8611 Y2.4572  
G01 X-1.8676 Y2.4593  
G01 X-1.8738 Y2.4625  
G01 X-1.8794 Y2.4665  
G01 X-1.8842 Y2.4714  
G01 X-1.8883 Y2.4770  
G01 X-1.8914 Y2.4832  
G01 X-1.8936 Y2.4897  
G01 X-1.8947 Y2.4965  
G01 X-1.8947 Y2.5035  
G01 X-1.8936 Y2.5103  
G01 X-1.8914 Y2.5168  
G01 X-1.8883 Y2.5230  
G01 X-1.8842 Y2.5286  
G01 X-1.8794 Y2.5335  
G01 X-1.8738 Y2.5375  
G01 X-1.8676 Y2.5407  
G01 X-1.8611 Y2.5428  
G01 X-1.8542 Y2.5439  
G01 X-1.7939 Y2.5439  
G01 X-1.7939 Y2.6696  
G01 X-1.7957 Y2.6714  
G01 X-1.7997 Y2.6770  
G01 X-1.8029 Y2.6832  
G01 X-1.8050 Y2.6897  
G01 X-1.8061 Y2.6965  
G01 X-1.8061 Y2.8940  
G01 X-1.8182 Y2.9061  
G01 X-2.4183 Y2.9061  
G01 X-2.4183 Y2.7182  
G01 X-2.4165 Y2.7164  
G01 X-2.4125 Y2.7108  
G01 X-2.4093 Y2.7046  
G01 X-2.4072 Y2.6981  
G01 X-2.4061 Y2.6912  
G01 X-2.4061 Y2.5323  
G01 X-2.4034 Y2.5286  
G01 X-2.3995 Y2.5209  
G01 X-2.3968 Y2.5128  
G01 X-2.3955 Y2.5043  
G01 X-2.3955 Y2.4957  
G01 X-2.3968 Y2.4872  
G01 X-2.3995 Y2.4791  
G01 X-2.4034 Y2.4714  
G01 X-2.4084 Y2.4645  
G01 X-2.4145 Y2.4584  
G01 X-2.4214 Y2.4534  
G01 X-2.4291 Y2.4495  
G01 X-2.4372 Y2.4468  
G01 X-2.4457 Y2.4455  
G01 X-2.4543 Y2.4455  
G01 X-2.4628 Y2.4468  
G01 X-2.4709 Y2.4495  
G01 X-2.4786 Y2.4534  
G01 X-2.4823 Y2.4561  
G01 X-2.5542 Y2.4561  
G01 X-2.5611 Y2.4572  
G01 X-2.5676 Y2.4593  
G01 X-2.5738 Y2.4625  
G01 X-2.5794 Y2.4665  
G01 X-2.5842 Y2.4714  
G01 X-2.5883 Y2.4770  
G01 X-2.5914 Y2.4832  
G01 X-2.5936 Y2.4897  
G01 X-2.5947 Y2.4965  
G01 X-2.5947 Y2.5035  
G01 X-2.5936 Y2.5103  
G01 X-2.5914 Y2.5168  
G01 X-2.5883 Y2.5230  
G01 X-2.5842 Y2.5286  
G01 X-2.5794 Y2.5335  
G01 X-2.5738 Y2.5375  
G01 X-2.5676 Y2.5407  
G01 X-2.5611 Y2.5428  
G01 X-2.5542 Y2.5439  
G01 X-2.4939 Y2.5439  
G01 X-2.4939 Y2.6696  
G01 X-2.4957 Y2.6714  
G01 X-2.4997 Y2.6770  
G01 X-2.5029 Y2.6832  
G01 X-2.5050 Y2.6897  
G01 X-2.5061 Y2.6965  
G01 X-2.5061 Y2.9061  
G01 X-2.8537 Y2.9061  
G01 X-2.8915 Y2.8683  
G01 X-2.8896 Y2.8694  
G01 X-2.8811 Y2.8729  
G01 X-2.8723 Y2.8753  
G01 X-2.8632 Y2.8765  
G01 X-2.8541 Y2.8765  
G01 X-2.8450 Y2.8753  
G01 X-2.8362 Y2.8729  
G01 X-2.8277 Y2.8694  
G01 X-2.8198 Y2.8648  
G01 X-2.8126 Y2.8593  
G01 X-2.8061 Y2.8528  
G01 X-2.8005 Y2.8455  
G01 X-2.7959 Y2.8376  
G01 X-2.7924 Y2.8292  
G01 X-2.7901 Y2.8203  
G01 X-2.7889 Y2.8113  
G01 X-2.7889 Y2.8021  
G01 X-2.7901 Y2.7931  
G01 X-2.7924 Y2.7842  
G01 X-2.7959 Y2.7758  
G01 X-2.8005 Y2.7678  
G01 X-2.8061 Y2.7606  
G01 X-2.8126 Y2.7541  
G01 X-2.8198 Y2.7486  
G01 X-2.8277 Y2.7440  
G01 X-2.8362 Y2.7405  
G01 X-2.8450 Y2.7381  
G01 X-2.8541 Y2.7369  
G01 X-2.8632 Y2.7369  
G01 X-2.8723 Y2.7381  
G01 X-2.8811 Y2.7405  
G01 X-2.8896 Y2.7440  
G01 X-2.8975 Y2.7486  
G01 X-2.9048 Y2.7541  
G01 X-2.9112 Y2.7606  
G01 X-2.9168 Y2.7678  
G01 X-2.9214 Y2.7758  
G01 X-2.9249 Y2.7842  
G01 X-2.9272 Y2.7931  
G01 X-2.9284 Y2.8021  
G01 X-2.9284 Y2.8113  
G01 X-2.9272 Y2.8203  
G01 X-2.9249 Y2.8292  
G01 X-2.9214 Y2.8376  
G01 X-2.9203 Y2.8395  
G01 X-3.1138 Y2.6460  
G01 X-3.1138 Y2.3182  
G01 X-3.0895 Y2.2939  
G01 X-2.8950 Y2.2939  
G01 X-2.8882 Y2.2928  
G01 X-2.8816 Y2.2907  
G01 X-2.8754 Y2.2875  
G01 X-2.8698 Y2.2835  
G01 X-2.8650 Y2.2786  
G01 X-2.7665 Y2.1802  
G01 X-2.7625 Y2.1746  
G01 X-2.7593 Y2.1684  
G01 X-2.7572 Y2.1618  
G01 X-2.7561 Y2.1550  
G01 X-2.7561 Y2.1481  
G01 X-2.7572 Y2.1413  
G01 X-2.7593 Y2.1347  
G01 X-2.7625 Y2.1286  
G01 X-2.7665 Y2.1230  
G01 X-2.7714 Y2.1181  
G01 X-2.7770 Y2.1141  
G01 X-2.7832 Y2.1109  
G01 X-2.7897 Y2.1088  
G01 X-2.7965 Y2.1077  
G01 X-2.8035 Y2.1077  
G01 X-2.8103 Y2.1088  
G01 X-2.8168 Y2.1109  
G01 X-2.8230 Y2.1141  
G01 X-2.8286 Y2.1181  
G01 X-2.9166 Y2.2061  
G01 X-3.1111 Y2.2061  
G01 X-3.1138 Y2.2066  
G01 X-3.1138 Y1.9939  
G01 X-3.0465 Y1.9939  
G01 X-3.0397 Y1.9928  
G01 X-3.0332 Y1.9907  
G01 X-3.0270 Y1.9875  
G01 X-3.0214 Y1.9835  
G01 X-2.9907 Y1.9528  
G01 X-2.9858 Y1.9479  
G01 X-2.9818 Y1.9423  
G01 X-2.9787 Y1.9361  
G01 X-2.9765 Y1.9296  
G01 X-2.9754 Y1.9228  
G01 X-2.9754 Y1.8637  
G01 X-2.9749 Y1.8658  
G01 X-2.9714 Y1.8742  
G01 X-2.9668 Y1.8822  
G01 X-2.9612 Y1.8894  
G01 X-2.9548 Y1.8959  
G01 X-2.9475 Y1.9014  
G01 X-2.9396 Y1.9060  
G01 X-2.9311 Y1.9095  
G01 X-2.9223 Y1.9119  
G01 X-2.9132 Y1.9131  
G01 X-2.9041 Y1.9131  
G01 X-2.8950 Y1.9119  
G01 X-2.8862 Y1.9095  
G01 X-2.8777 Y1.9060  
G01 X-2.8698 Y1.9014  
G01 X-2.8626 Y1.8959  
G01 X-2.8561 Y1.8894  
G01 X-2.8505 Y1.8822  
G01 X-2.8459 Y1.8742  
G01 X-2.8424 Y1.8658  
G01 X-2.8401 Y1.8569  
G01 X-2.8389 Y1.8479  
G01 X-2.8389 Y1.8387  
G01 X-2.8401 Y1.8297  
G01 X-2.8424 Y1.8208  
G01 X-2.8459 Y1.8124  
G01 X-2.8505 Y1.8045  
G01 X-2.8561 Y1.7972  
G01 X-2.8626 Y1.7907  
G01 X-2.8698 Y1.7852  
G01 X-2.8777 Y1.7806  
G01 X-2.8862 Y1.7771  
G01 X-2.8883 Y1.7765  
G01 X-2.8508 Y1.7765  
G01 X-2.8317 Y1.7957  
G01 X-2.8317 Y1.9318  
G01 X-2.8335 Y1.9336  
G01 X-2.8375 Y1.9392  
G01 X-2.8407 Y1.9454  
G01 X-2.8428 Y1.9519  
G01 X-2.8439 Y1.9588  
G01 X-2.8439 Y2.0535  
G01 X-2.8428 Y2.0603  
G01 X-2.8407 Y2.0668  
G01 X-2.8375 Y2.0730  
G01 X-2.8335 Y2.0786  
G01 X-2.8286 Y2.0835  
G01 X-2.8230 Y2.0875  
G01 X-2.8168 Y2.0907  
G01 X-2.8103 Y2.0928  
G01 X-2.8035 Y2.0939  
G01 X-2.6682 Y2.0939  
G01 X-2.5786 Y2.1835  
G01 X-2.5730 Y2.1875  
G01 X-2.5668 Y2.1907  
G01 X-2.5603 Y2.1928  
G01 X-2.5535 Y2.1939  
G01 X-2.5458 Y2.1939  
G01 X-2.5389 Y2.1928  
G01 X-2.5324 Y2.1907  
G01 X-2.5262 Y2.1875  
G01 X-2.5206 Y2.1835  
G01 X-2.5158 Y2.1786  
G01 X-2.5117 Y2.1730  
G01 X-2.5086 Y2.1668  
G01 X-2.5064 Y2.1603  
G01 X-2.5053 Y2.1535  
G01 X-2.5053 Y2.1465  
G01 X-2.5064 Y2.1397  
G01 X-2.5086 Y2.1332  
G01 X-2.5117 Y2.1270  
G01 X-2.5158 Y2.1214  
G01 X-2.5206 Y2.1165  
G01 X-2.5235 Y2.1144  
G01 X-2.6165 Y2.0214  
G01 X-2.6214 Y2.0165  
G01 X-2.6270 Y2.0125  
G01 X-2.6332 Y2.0093  
G01 X-2.6397 Y2.0072  
G01 X-2.6465 Y2.0061  
G01 X-2.7561 Y2.0061  
G01 X-2.7561 Y1.9804  
G01 X-2.7543 Y1.9786  
G01 X-2.7503 Y1.9730  
G01 X-2.7471 Y1.9668  
G01 X-2.7450 Y1.9603  
G01 X-2.7439 Y1.9535  
G01 X-2.7439 Y1.7741  
G01 X-2.7450 Y1.7673  
G01 X-2.7471 Y1.7607  
G01 X-2.7503 Y1.7545  
G01 X-2.7543 Y1.7489  
G01 X-2.7594 Y1.7439  
G01 X-2.1317 Y1.7439  
G01 X-2.1317 Y2.1056  
G01 X-2.1355 Y2.1084  
G01 X-2.1416 Y2.1145  
G01 X-2.1466 Y2.1214  
G01 X-2.1505 Y2.1291  
G01 X-2.1532 Y2.1372  
G01 X-2.1545 Y2.1457  
G01 X-2.1545 Y2.1543  
G01 X-2.1532 Y2.1628  
G01 X-2.1505 Y2.1709  
G01 X-2.1466 Y2.1786  
G01 X-2.1416 Y2.1855  
G01 X-2.1355 Y2.1916  
G01 X-2.1286 Y2.1966  
G01 X-2.1209 Y2.2005  
G01 X-2.1128 Y2.2032  
G01 X-2.1043 Y2.2045  
G01 X-2.0957 Y2.2045  
G01 X-2.0872 Y2.2032  
G01 X-2.0791 Y2.2005  
G01 X-2.0714 Y2.1966  
G01 X-2.0677 Y2.1939  
G01 X-1.9958 Y2.1939  
G01 X-1.9889 Y2.1928  
G01 X-1.9824 Y2.1907  
G01 X-1.9762 Y2.1875  
G01 X-1.9706 Y2.1835  
G01 X-1.9658 Y2.1786  
G01 X-1.9617 Y2.1730  
G01 X-1.9586 Y2.1668  
G01 X-1.9564 Y2.1603  
G01 X-1.9553 Y2.1535  
G01 X-1.9553 Y2.1465  
G01 X-1.9564 Y2.1397  
G01 X-1.9586 Y2.1332  
G01 X-1.9617 Y2.1270  
G01 X-1.9658 Y2.1214  
G01 X-1.9706 Y2.1165  
G01 X-1.9762 Y2.1125  
G01 X-1.9824 Y2.1093  
G01 X-1.9889 Y2.1072  
G01 X-1.9958 Y2.1061  
G01 X-2.0439 Y2.1061  
G01 X-2.0439 Y1.7560  
G01 X-2.0318 Y1.7439  
G01 X-1.4317 Y1.7439  
G01 X-1.4317 Y1.9318  
G01 X-1.4335 Y1.9336  
G00 Z0.1000  
G00 X-1.2342 Y2.1130  
G01 Z-0.0070 F10    
G01 X-1.2358 Y2.1137  F20    
G01 X-1.2371 Y2.1150  
G01 X-1.2378 Y2.1166  
G01 X-1.2378 Y2.1263  
G01 X-1.2383 Y2.1270  
G01 X-1.2414 Y2.1332  
G01 X-1.2436 Y2.1397  
G01 X-1.2447 Y2.1465  
G01 X-1.2447 Y2.1535  
G01 X-1.2436 Y2.1603  
G01 X-1.2414 Y2.1668  
G01 X-1.2383 Y2.1730  
G01 X-1.2378 Y2.1737  
G01 X-1.2378 Y2.1834  
G01 X-1.2371 Y2.1850  
G01 X-1.2358 Y2.1863  
G01 X-1.2342 Y2.1870  
G01 X-1.2245 Y2.1870  
G01 X-1.2238 Y2.1875  
G01 X-1.2176 Y2.1907  
G01 X-1.2111 Y2.1928  
G01 X-1.2042 Y2.1939  
G01 X-1.1439 Y2.1939  
G01 X-1.1439 Y2.3080  
G01 X-1.1925 Y2.3080  
G01 X-1.1975 Y2.3072  
G01 X-1.2041 Y2.3072  
G01 X-1.2091 Y2.3080  
G01 X-1.3373 Y2.3080  
G01 X-1.3397 Y2.3072  
G01 X-1.3465 Y2.3061  
G01 X-1.3535 Y2.3061  
G01 X-1.3603 Y2.3072  
G01 X-1.3627 Y2.3080  
G01 X-1.7561 Y2.3080  
G01 X-1.7561 Y2.1823  
G01 X-1.7534 Y2.1786  
G01 X-1.7495 Y2.1709  
G01 X-1.7468 Y2.1628  
G01 X-1.7455 Y2.1543  
G01 X-1.7455 Y2.1457  
G01 X-1.7468 Y2.1372  
G01 X-1.7495 Y2.1291  
G01 X-1.7534 Y2.1214  
G01 X-1.7561 Y2.1177  
G01 X-1.7561 Y1.9588  
G01 X-1.7572 Y1.9519  
G01 X-1.7593 Y1.9454  
G01 X-1.7625 Y1.9392  
G01 X-1.7665 Y1.9336  
G01 X-1.7836 Y1.9165  
G01 X-1.7892 Y1.9125  
G01 X-1.7954 Y1.9093  
G01 X-1.8019 Y1.9072  
G01 X-1.8088 Y1.9061  
G01 X-1.8157 Y1.9061  
G01 X-1.8225 Y1.9072  
G01 X-1.8290 Y1.9093  
G01 X-1.8352 Y1.9125  
G01 X-1.8408 Y1.9165  
G01 X-1.8457 Y1.9214  
G01 X-1.8497 Y1.9270  
G01 X-1.8529 Y1.9332  
G01 X-1.8550 Y1.9397  
G01 X-1.8561 Y1.9465  
G01 X-1.8561 Y1.9535  
G01 X-1.8550 Y1.9603  
G01 X-1.8529 Y1.9668  
G01 X-1.8497 Y1.9730  
G01 X-1.8457 Y1.9786  
G01 X-1.8439 Y1.9804  
G01 X-1.8439 Y2.1061  
G01 X-1.9042 Y2.1061  
G01 X-1.9111 Y2.1072  
G01 X-1.9176 Y2.1093  
G01 X-1.9238 Y2.1125  
G01 X-1.9245 Y2.1130  
G01 X-1.9342 Y2.1130  
G01 X-1.9358 Y2.1137  
G01 X-1.9371 Y2.1150  
G01 X-1.9378 Y2.1166  
G01 X-1.9378 Y2.1263  
G01 X-1.9383 Y2.1270  
G01 X-1.9414 Y2.1332  
G01 X-1.9436 Y2.1397  
G01 X-1.9447 Y2.1465  
G01 X-1.9447 Y2.1535  
G01 X-1.9436 Y2.1603  
G01 X-1.9414 Y2.1668  
G01 X-1.9383 Y2.1730  
G01 X-1.9378 Y2.1737  
G01 X-1.9378 Y2.1834  
G01 X-1.9371 Y2.1850  
G01 X-1.9358 Y2.1863  
G01 X-1.9342 Y2.1870  
G01 X-1.9245 Y2.1870  
G01 X-1.9238 Y2.1875  
G01 X-1.9176 Y2.1907  
G01 X-1.9111 Y2.1928  
G01 X-1.9042 Y2.1939  
G01 X-1.8439 Y2.1939  
G01 X-1.8439 Y2.3080  
G01 X-2.0373 Y2.3080  
G01 X-2.0397 Y2.3072  
G01 X-2.0465 Y2.3061  
G01 X-2.0535 Y2.3061  
G01 X-2.0603 Y2.3072  
G01 X-2.0627 Y2.3080  
G01 X-2.4069 Y2.3080  
G01 X-2.4069 Y2.0080  
G01 X-2.4080 Y2.0011  
G01 X-2.4101 Y1.9946  
G01 X-2.4133 Y1.9884  
G01 X-2.4173 Y1.9828  
G01 X-2.4836 Y1.9165  
G01 X-2.4892 Y1.9125  
G01 X-2.4954 Y1.9093  
G01 X-2.5019 Y1.9072  
G01 X-2.5088 Y1.9061  
G01 X-2.5157 Y1.9061  
G01 X-2.5225 Y1.9072  
G01 X-2.5290 Y1.9093  
G01 X-2.5352 Y1.9125  
G01 X-2.5408 Y1.9165  
G01 X-2.5457 Y1.9214  
G01 X-2.5497 Y1.9270  
G01 X-2.5529 Y1.9332  
G01 X-2.5550 Y1.9397  
G01 X-2.5561 Y1.9465  
G01 X-2.5561 Y1.9535  
G01 X-2.5550 Y1.9603  
G01 X-2.5529 Y1.9668  
G01 X-2.5497 Y1.9730  
G01 X-2.5457 Y1.9786  
G01 X-2.4947 Y2.0296  
G01 X-2.4947 Y2.3080  
G01 X-2.7581 Y2.3080  
G01 X-2.7582 Y2.3079  
G01 X-2.7595 Y2.3066  
G01 X-2.7611 Y2.3059  
G01 X-2.8389 Y2.3059  
G01 X-2.8405 Y2.3066  
G01 X-2.8418 Y2.3079  
G01 X-2.8419 Y2.3080  
G01 X-2.9033 Y2.3080  
G01 X-2.9098 Y2.3090  
G01 X-2.9161 Y2.3111  
G01 X-2.9220 Y2.3141  
G01 X-2.9274 Y2.3180  
G01 X-3.0174 Y2.4080  
G01 X-3.0533 Y2.4080  
G01 X-3.0598 Y2.4090  
G01 X-3.0661 Y2.4111  
G01 X-3.0720 Y2.4141  
G01 X-3.0774 Y2.4180  
G01 X-3.0820 Y2.4226  
G01 X-3.0859 Y2.4280  
G01 X-3.0889 Y2.4339  
G01 X-3.0910 Y2.4402  
G01 X-3.0920 Y2.4467  
G01 X-3.0920 Y2.4533  
G01 X-3.0910 Y2.4598  
G01 X-3.0889 Y2.4661  
G01 X-3.0859 Y2.4720  
G01 X-3.0820 Y2.4774  
G01 X-3.0774 Y2.4820  
G01 X-3.0720 Y2.4859  
G01 X-3.0661 Y2.4889  
G01 X-3.0598 Y2.4910  
G01 X-3.0533 Y2.4920  
G01 X-2.9967 Y2.4920  
G01 X-2.9902 Y2.4910  
G01 X-2.9839 Y2.4889  
G01 X-2.9780 Y2.4859  
G01 X-2.9726 Y2.4820  
G01 X-2.8826 Y2.3920  
G01 X-2.8200 Y2.3920  
G01 X-2.7939 Y2.4182  
G01 X-2.7939 Y2.4677  
G01 X-2.7966 Y2.4714  
G01 X-2.8005 Y2.4791  
G01 X-2.8032 Y2.4872  
G01 X-2.8045 Y2.4957  
G01 X-2.8045 Y2.5043  
G01 X-2.8032 Y2.5128  
G01 X-2.8005 Y2.5209  
G01 X-2.7966 Y2.5286  
G01 X-2.7939 Y2.5323  
G01 X-2.7939 Y2.6912  
G01 X-2.7928 Y2.6981  
G01 X-2.7907 Y2.7046  
G01 X-2.7875 Y2.7108  
G01 X-2.7835 Y2.7164  
G01 X-2.7664 Y2.7335  
G01 X-2.7608 Y2.7375  
G01 X-2.7546 Y2.7407  
G01 X-2.7481 Y2.7428  
G01 X-2.7412 Y2.7439  
G01 X-2.7343 Y2.7439  
G01 X-2.7275 Y2.7428  
G01 X-2.7210 Y2.7407  
G01 X-2.7148 Y2.7375  
G01 X-2.7092 Y2.7335  
G01 X-2.7043 Y2.7286  
G01 X-2.7003 Y2.7230  
G01 X-2.6971 Y2.7168  
G01 X-2.6950 Y2.7103  
G01 X-2.6939 Y2.7035  
G01 X-2.6939 Y2.6965  
G01 X-2.6950 Y2.6897  
G01 X-2.6971 Y2.6832  
G01 X-2.7003 Y2.6770  
G01 X-2.7043 Y2.6714  
G01 X-2.7061 Y2.6696  
G01 X-2.7061 Y2.5439  
G01 X-2.6458 Y2.5439  
G01 X-2.6389 Y2.5428  
G01 X-2.6324 Y2.5407  
G01 X-2.6262 Y2.5375  
G01 X-2.6255 Y2.5370  
G01 X-2.6158 Y2.5370  
G01 X-2.6142 Y2.5363  
G01 X-2.6129 Y2.5350  
G01 X-2.6122 Y2.5334  
G01 X-2.6122 Y2.5237  
G01 X-2.6117 Y2.5230  
G01 X-2.6086 Y2.5168  
G01 X-2.6064 Y2.5103  
G01 X-2.6053 Y2.5035  
G01 X-2.6053 Y2.4965  
G01 X-2.6064 Y2.4897  
G01 X-2.6086 Y2.4832  
G01 X-2.6117 Y2.4770  
G01 X-2.6122 Y2.4763  
G01 X-2.6122 Y2.4666  
G01 X-2.6129 Y2.4650  
G01 X-2.6142 Y2.4637  
G01 X-2.6158 Y2.4630  
G01 X-2.6255 Y2.4630  
G01 X-2.6262 Y2.4625  
G01 X-2.6324 Y2.4593  
G01 X-2.6389 Y2.4572  
G01 X-2.6458 Y2.4561  
G01 X-2.7061 Y2.4561  
G01 X-2.7061 Y2.3965  
G01 X-2.7069 Y2.3920  
G01 X-2.4627 Y2.3920  
G01 X-2.4603 Y2.3928  
G01 X-2.4535 Y2.3939  
G01 X-2.4465 Y2.3939  
G01 X-2.4397 Y2.3928  
G01 X-2.4373 Y2.3920  
G01 X-2.0939 Y2.3920  
G01 X-2.0939 Y2.4677  
G01 X-2.0966 Y2.4714  
G01 X-2.1005 Y2.4791  
G01 X-2.1032 Y2.4872  
G01 X-2.1045 Y2.4957  
G01 X-2.1045 Y2.5043  
G01 X-2.1032 Y2.5128  
G01 X-2.1005 Y2.5209  
G01 X-2.0966 Y2.5286  
G01 X-2.0916 Y2.5355  
G01 X-2.0855 Y2.5416  
G01 X-2.0817 Y2.5444  
G01 X-2.0817 Y2.7035  
G01 X-2.0806 Y2.7103  
G01 X-2.0785 Y2.7168  
G01 X-2.0753 Y2.7230  
G01 X-2.0713 Y2.7286  
G01 X-2.0664 Y2.7335  
G01 X-2.0608 Y2.7375  
G01 X-2.0546 Y2.7407  
G01 X-2.0481 Y2.7428  
G01 X-2.0412 Y2.7439  
G01 X-2.0343 Y2.7439  
G01 X-2.0275 Y2.7428  
G01 X-2.0210 Y2.7407  
G01 X-2.0148 Y2.7375  
G01 X-2.0092 Y2.7335  
G01 X-2.0043 Y2.7286  
G01 X-2.0003 Y2.7230  
G01 X-1.9971 Y2.7168  
G01 X-1.9950 Y2.7103  
G01 X-1.9939 Y2.7035  
G01 X-1.9939 Y2.5439  
G01 X-1.9458 Y2.5439  
G01 X-1.9389 Y2.5428  
G01 X-1.9324 Y2.5407  
G01 X-1.9262 Y2.5375  
G01 X-1.9255 Y2.5370  
G01 X-1.9158 Y2.5370  
G01 X-1.9142 Y2.5363  
G01 X-1.9129 Y2.5350  
G01 X-1.9122 Y2.5334  
G01 X-1.9122 Y2.5237  
G01 X-1.9117 Y2.5230  
G01 X-1.9086 Y2.5168  
G01 X-1.9064 Y2.5103  
G01 X-1.9053 Y2.5035  
G01 X-1.9053 Y2.4965  
G01 X-1.9064 Y2.4897  
G01 X-1.9086 Y2.4832  
G01 X-1.9117 Y2.4770  
G01 X-1.9122 Y2.4763  
G01 X-1.9122 Y2.4666  
G01 X-1.9129 Y2.4650  
G01 X-1.9142 Y2.4637  
G01 X-1.9158 Y2.4630  
G01 X-1.9255 Y2.4630  
G01 X-1.9262 Y2.4625  
G01 X-1.9324 Y2.4593  
G01 X-1.9389 Y2.4572  
G01 X-1.9458 Y2.4561  
G01 X-2.0061 Y2.4561  
G01 X-2.0061 Y2.3920  
G01 X-1.8127 Y2.3920  
G01 X-1.8103 Y2.3928  
G01 X-1.8035 Y2.3939  
G01 X-1.7965 Y2.3939  
G01 X-1.7897 Y2.3928  
G01 X-1.7873 Y2.3920  
G01 X-1.3939 Y2.3920  
G01 X-1.3939 Y2.4677  
G01 X-1.3966 Y2.4714  
G01 X-1.4005 Y2.4791  
G01 X-1.4032 Y2.4872  
G01 X-1.4045 Y2.4957  
G01 X-1.4045 Y2.5043  
G01 X-1.4032 Y2.5128  
G01 X-1.4005 Y2.5209  
G01 X-1.3966 Y2.5286  
G01 X-1.3939 Y2.5323  
G01 X-1.3939 Y2.6912  
G01 X-1.3928 Y2.6981  
G01 X-1.3907 Y2.7046  
G01 X-1.3875 Y2.7108  
G01 X-1.3835 Y2.7164  
G01 X-1.3664 Y2.7335  
G01 X-1.3608 Y2.7375  
G01 X-1.3546 Y2.7407  
G01 X-1.3481 Y2.7428  
G01 X-1.3412 Y2.7439  
G01 X-1.3343 Y2.7439  
G01 X-1.3275 Y2.7428  
G01 X-1.3210 Y2.7407  
G01 X-1.3148 Y2.7375  
G01 X-1.3092 Y2.7335  
G01 X-1.3043 Y2.7286  
G01 X-1.3003 Y2.7230  
G01 X-1.2971 Y2.7168  
G01 X-1.2950 Y2.7103  
G01 X-1.2939 Y2.7035  
G01 X-1.2939 Y2.6965  
G01 X-1.2950 Y2.6897  
G01 X-1.2971 Y2.6832  
G01 X-1.3003 Y2.6770  
G01 X-1.3043 Y2.6714  
G01 X-1.3061 Y2.6696  
G01 X-1.3061 Y2.5439  
G01 X-1.2458 Y2.5439  
G01 X-1.2389 Y2.5428  
G01 X-1.2324 Y2.5407  
G01 X-1.2262 Y2.5375  
G01 X-1.2255 Y2.5370  
G01 X-1.2158 Y2.5370  
G01 X-1.2142 Y2.5363  
G01 X-1.2129 Y2.5350  
G01 X-1.2122 Y2.5334  
G01 X-1.2122 Y2.5237  
G01 X-1.2117 Y2.5230  
G01 X-1.2086 Y2.5168  
G01 X-1.2064 Y2.5103  
G01 X-1.2053 Y2.5035  
G01 X-1.2053 Y2.4965  
G01 X-1.2064 Y2.4897  
G01 X-1.2086 Y2.4832  
G01 X-1.2117 Y2.4770  
G01 X-1.2122 Y2.4763  
G01 X-1.2122 Y2.4666  
G01 X-1.2129 Y2.4650  
G01 X-1.2142 Y2.4637  
G01 X-1.2158 Y2.4630  
G01 X-1.2255 Y2.4630  
G01 X-1.2262 Y2.4625  
G01 X-1.2324 Y2.4593  
G01 X-1.2389 Y2.4572  
G01 X-1.2458 Y2.4561  
G01 X-1.3061 Y2.4561  
G01 X-1.3061 Y2.3920  
G01 X-1.1127 Y2.3920  
G01 X-1.1103 Y2.3928  
G01 X-1.1035 Y2.3939  
G01 X-1.0965 Y2.3939  
G01 X-1.0897 Y2.3928  
G01 X-1.0873 Y2.3920  
G01 X-0.6939 Y2.3920  
G01 X-0.6939 Y2.4677  
G01 X-0.6966 Y2.4714  
G01 X-0.7005 Y2.4791  
G01 X-0.7032 Y2.4872  
G01 X-0.7045 Y2.4957  
G01 X-0.7045 Y2.5043  
G01 X-0.7032 Y2.5128  
G01 X-0.7005 Y2.5209  
G01 X-0.6966 Y2.5286  
G01 X-0.6939 Y2.5323  
G01 X-0.6939 Y2.6912  
G01 X-0.6928 Y2.6981  
G01 X-0.6907 Y2.7046  
G01 X-0.6875 Y2.7108  
G01 X-0.6835 Y2.7164  
G01 X-0.6664 Y2.7335  
G01 X-0.6608 Y2.7375  
G01 X-0.6546 Y2.7407  
G01 X-0.6481 Y2.7428  
G01 X-0.6412 Y2.7439  
G01 X-0.6343 Y2.7439  
G01 X-0.6275 Y2.7428  
G01 X-0.6210 Y2.7407  
G01 X-0.6148 Y2.7375  
G01 X-0.6092 Y2.7335  
G01 X-0.6043 Y2.7286  
G01 X-0.6003 Y2.7230  
G01 X-0.5971 Y2.7168  
G01 X-0.5950 Y2.7103  
G01 X-0.5939 Y2.7035  
G01 X-0.5939 Y2.6965  
G01 X-0.5950 Y2.6897  
G01 X-0.5971 Y2.6832  
G01 X-0.6003 Y2.6770  
G01 X-0.6043 Y2.6714  
G01 X-0.6061 Y2.6696  
G01 X-0.6061 Y2.5439  
G01 X-0.5458 Y2.5439  
G01 X-0.5389 Y2.5428  
G01 X-0.5324 Y2.5407  
G01 X-0.5262 Y2.5375  
G01 X-0.5255 Y2.5370  
G01 X-0.5158 Y2.5370  
G01 X-0.5142 Y2.5363  
G01 X-0.5129 Y2.5350  
G01 X-0.5122 Y2.5334  
G01 X-0.5122 Y2.5237  
G01 X-0.5117 Y2.5230  
G01 X-0.5086 Y2.5168  
G01 X-0.5064 Y2.5103  
G01 X-0.5053 Y2.5035  
G01 X-0.5053 Y2.4965  
G01 X-0.5064 Y2.4897  
G01 X-0.5086 Y2.4832  
G01 X-0.5117 Y2.4770  
G01 X-0.5122 Y2.4763  
G01 X-0.5122 Y2.4666  
G01 X-0.5129 Y2.4650  
G01 X-0.5142 Y2.4637  
G01 X-0.5158 Y2.4630  
G01 X-0.5255 Y2.4630  
G01 X-0.5262 Y2.4625  
G01 X-0.5324 Y2.4593  
G01 X-0.5389 Y2.4572  
G01 X-0.5458 Y2.4561  
G01 X-0.6061 Y2.4561  
G01 X-0.6061 Y2.3922  
G01 X-0.6025 Y2.3928  
G01 X-0.5959 Y2.3928  
G01 X-0.5909 Y2.3920  
G01 X-0.5627 Y2.3920  
G01 X-0.5603 Y2.3928  
G01 X-0.5535 Y2.3939  
G01 X-0.5465 Y2.3939  
G01 X-0.5397 Y2.3928  
G01 X-0.5373 Y2.3920  
G01 X-0.3349 Y2.3920  
G01 X-0.3286 Y2.3966  
G01 X-0.3209 Y2.4005  
G01 X-0.3128 Y2.4032  
G01 X-0.3043 Y2.4045  
G01 X-0.2575 Y2.4045  
G01 X-0.2439 Y2.4182  
G01 X-0.2439 Y2.4677  
G01 X-0.2466 Y2.4714  
G01 X-0.2505 Y2.4791  
G01 X-0.2532 Y2.4872  
G01 X-0.2545 Y2.4957  
G01 X-0.2545 Y2.5043  
G01 X-0.2532 Y2.5128  
G01 X-0.2505 Y2.5209  
G01 X-0.2466 Y2.5286  
G01 X-0.2416 Y2.5355  
G01 X-0.2355 Y2.5416  
G01 X-0.2286 Y2.5466  
G01 X-0.2209 Y2.5505  
G01 X-0.2128 Y2.5532  
G01 X-0.2043 Y2.5545  
G01 X-0.1957 Y2.5545  
G01 X-0.1872 Y2.5532  
G01 X-0.1791 Y2.5505  
G01 X-0.1714 Y2.5466  
G01 X-0.1645 Y2.5416  
G01 X-0.1584 Y2.5355  
G01 X-0.1534 Y2.5286  
G01 X-0.1495 Y2.5209  
G01 X-0.1468 Y2.5128  
G01 X-0.1455 Y2.5043  
G01 X-0.1455 Y2.4957  
G01 X-0.1468 Y2.4872  
G01 X-0.1495 Y2.4791  
G01 X-0.1534 Y2.4714  
G01 X-0.1561 Y2.4677  
G01 X-0.1561 Y2.3965  
G01 X-0.1572 Y2.3897  
G01 X-0.1593 Y2.3832  
G01 X-0.1625 Y2.3770  
G01 X-0.1665 Y2.3714  
G01 X-0.1961 Y2.3418  
G01 X-0.1968 Y2.3372  
G01 X-0.1995 Y2.3291  
G01 X-0.2034 Y2.3214  
G01 X-0.2084 Y2.3145  
G01 X-0.2145 Y2.3084  
G01 X-0.2214 Y2.3034  
G01 X-0.2291 Y2.2995  
G01 X-0.2372 Y2.2968  
G01 X-0.2457 Y2.2955  
G01 X-0.3043 Y2.2955  
G01 X-0.3128 Y2.2968  
G01 X-0.3209 Y2.2995  
G01 X-0.3286 Y2.3034  
G01 X-0.3321 Y2.3059  
G01 X-0.3389 Y2.3059  
G01 X-0.3405 Y2.3066  
G01 X-0.3418 Y2.3079  
G01 X-0.3419 Y2.3080  
G01 X-0.5069 Y2.3080  
G01 X-0.5069 Y2.1682  
G01 X-0.3787 Y2.0400  
G01 X-0.3747 Y2.0344  
G01 X-0.3715 Y2.0283  
G01 X-0.3694 Y2.0217  
G01 X-0.3683 Y2.0149  
G01 X-0.3683 Y1.9465  
G01 X-0.3694 Y1.9397  
G01 X-0.3715 Y1.9332  
G01 X-0.3747 Y1.9270  
G01 X-0.3787 Y1.9214  
G01 X-0.3836 Y1.9165  
G01 X-0.3892 Y1.9125  
G01 X-0.3954 Y1.9093  
G01 X-0.4019 Y1.9072  
G01 X-0.4088 Y1.9061  
G01 X-0.4157 Y1.9061  
G01 X-0.4225 Y1.9072  
G01 X-0.4290 Y1.9093  
G01 X-0.4352 Y1.9125  
G01 X-0.4408 Y1.9165  
G01 X-0.4457 Y1.9214  
G01 X-0.4497 Y1.9270  
G01 X-0.4529 Y1.9332  
G01 X-0.4550 Y1.9397  
G01 X-0.4561 Y1.9465  
G01 X-0.4561 Y1.9932  
G01 X-0.5758 Y2.1130  
G01 X-0.5842 Y2.1130  
G01 X-0.5858 Y2.1137  
G01 X-0.5871 Y2.1150  
G01 X-0.5878 Y2.1166  
G01 X-0.5878 Y2.1263  
G01 X-0.5883 Y2.1270  
G01 X-0.5914 Y2.1332  
G01 X-0.5936 Y2.1397  
G01 X-0.5947 Y2.1465  
G01 X-0.5947 Y2.3080  
G01 X-0.6373 Y2.3080  
G01 X-0.6397 Y2.3072  
G01 X-0.6465 Y2.3061  
G01 X-0.6535 Y2.3061  
G01 X-0.6603 Y2.3072  
G01 X-0.6627 Y2.3080  
G01 X-1.0561 Y2.3080  
G01 X-1.0561 Y2.1823  
G01 X-1.0534 Y2.1786  
G01 X-1.0495 Y2.1709  
G01 X-1.0468 Y2.1628  
G01 X-1.0455 Y2.1543  
G01 X-1.0455 Y2.1457  
G01 X-1.0468 Y2.1372  
G01 X-1.0495 Y2.1291  
G01 X-1.0534 Y2.1214  
G01 X-1.0584 Y2.1145  
G01 X-1.0645 Y2.1084  
G01 X-1.0683 Y2.1056  
G01 X-1.0683 Y1.9465  
G01 X-1.0694 Y1.9397  
G01 X-1.0715 Y1.9332  
G01 X-1.0747 Y1.9270  
G01 X-1.0787 Y1.9214  
G01 X-1.0836 Y1.9165  
G01 X-1.0892 Y1.9125  
G01 X-1.0954 Y1.9093  
G01 X-1.1019 Y1.9072  
G01 X-1.1088 Y1.9061  
G01 X-1.1157 Y1.9061  
G01 X-1.1225 Y1.9072  
G01 X-1.1290 Y1.9093  
G01 X-1.1352 Y1.9125  
G01 X-1.1408 Y1.9165  
G01 X-1.1457 Y1.9214  
G01 X-1.1497 Y1.9270  
G01 X-1.1529 Y1.9332  
G01 X-1.1550 Y1.9397  
G01 X-1.1561 Y1.9465  
G01 X-1.1561 Y2.1061  
G01 X-1.2042 Y2.1061  
G01 X-1.2111 Y2.1072  
G01 X-1.2176 Y2.1093  
G01 X-1.2238 Y2.1125  
G01 X-1.2245 Y2.1130  
G01 X-1.2342 Y2.1130  
G00 Z0.1000  
G00 X-2.7216 Y1.9468  
G01 Z-0.0070 F10    
G01 X-2.7216 Y1.9532  F20    
G01 X-2.7203 Y1.9594  
G01 X-2.7179 Y1.9653  
G01 X-2.7144 Y1.9705  
G01 X-2.7099 Y1.9750  
G01 X-2.7046 Y1.9785  
G01 X-2.6988 Y1.9810  
G01 X-2.6925 Y1.9822  
G01 X-2.6862 Y1.9822  
G01 X-2.6800 Y1.9810  
G01 X-2.6741 Y1.9785  
G01 X-2.6688 Y1.9750  
G01 X-2.6643 Y1.9705  
G01 X-2.6608 Y1.9653  
G01 X-2.6584 Y1.9594  
G01 X-2.6572 Y1.9532  
G01 X-2.6572 Y1.9468  
G01 X-2.6584 Y1.9406  
G01 X-2.6608 Y1.9347  
G01 X-2.6643 Y1.9295  
G01 X-2.6688 Y1.9250  
G01 X-2.6741 Y1.9215  
G01 X-2.6800 Y1.9190  
G01 X-2.6862 Y1.9178  
G01 X-2.6925 Y1.9178  
G01 X-2.6988 Y1.9190  
G01 X-2.7046 Y1.9215  
G01 X-2.7099 Y1.9250  
G01 X-2.7144 Y1.9295  
G01 X-2.7179 Y1.9347  
G01 X-2.7203 Y1.9406  
G01 X-2.7216 Y1.9468  
G00 Z0.1000  
G00 X-2.6428 Y1.9468  
G01 Z-0.0070 F10    
G01 X-2.6428 Y1.9532  F20    
G01 X-2.6416 Y1.9594  
G01 X-2.6392 Y1.9653  
G01 X-2.6357 Y1.9705  
G01 X-2.6312 Y1.9750  
G01 X-2.6259 Y1.9785  
G01 X-2.6200 Y1.9810  
G01 X-2.6138 Y1.9822  
G01 X-2.6075 Y1.9822  
G01 X-2.6012 Y1.9810  
G01 X-2.5954 Y1.9785  
G01 X-2.5901 Y1.9750  
G01 X-2.5856 Y1.9705  
G01 X-2.5821 Y1.9653  
G01 X-2.5797 Y1.9594  
G01 X-2.5784 Y1.9532  
G01 X-2.5784 Y1.9468  
G01 X-2.5797 Y1.9406  
G01 X-2.5821 Y1.9347  
G01 X-2.5856 Y1.9295  
G01 X-2.5901 Y1.9250  
G01 X-2.5954 Y1.9215  
G01 X-2.6012 Y1.9190  
G01 X-2.6075 Y1.9178  
G01 X-2.6138 Y1.9178  
G01 X-2.6200 Y1.9190  
G01 X-2.6259 Y1.9215  
G01 X-2.6312 Y1.9250  
G01 X-2.6357 Y1.9295  
G01 X-2.6392 Y1.9347  
G01 X-2.6416 Y1.9406  
G01 X-2.6428 Y1.9468  
G00 Z0.1000  
G00 X-2.4611 Y1.8387  
G01 Z-0.0070 F10    
G01 X-2.4611 Y1.8479  F20    
G01 X-2.4599 Y1.8569  
G01 X-2.4576 Y1.8658  
G01 X-2.4541 Y1.8742  
G01 X-2.4495 Y1.8822  
G01 X-2.4439 Y1.8894  
G01 X-2.4374 Y1.8959  
G01 X-2.4302 Y1.9014  
G01 X-2.4223 Y1.9060  
G01 X-2.4138 Y1.9095  
G01 X-2.4050 Y1.9119  
G01 X-2.3959 Y1.9131  
G01 X-2.3868 Y1.9131  
G01 X-2.3777 Y1.9119  
G01 X-2.3689 Y1.9095  
G01 X-2.3604 Y1.9060  
G01 X-2.3525 Y1.9014  
G01 X-2.3452 Y1.8959  
G01 X-2.3388 Y1.8894  
G01 X-2.3332 Y1.8822  
G01 X-2.3286 Y1.8742  
G01 X-2.3251 Y1.8658  
G01 X-2.3228 Y1.8569  
G01 X-2.3216 Y1.8479  
G01 X-2.3216 Y1.8387  
G01 X-2.3228 Y1.8297  
G01 X-2.3251 Y1.8208  
G01 X-2.3286 Y1.8124  
G01 X-2.3332 Y1.8045  
G01 X-2.3388 Y1.7972  
G01 X-2.3452 Y1.7907  
G01 X-2.3525 Y1.7852  
G01 X-2.3604 Y1.7806  
G01 X-2.3689 Y1.7771  
G01 X-2.3777 Y1.7747  
G01 X-2.3868 Y1.7735  
G01 X-2.3959 Y1.7735  
G01 X-2.4050 Y1.7747  
G01 X-2.4138 Y1.7771  
G01 X-2.4223 Y1.7806  
G01 X-2.4302 Y1.7852  
G01 X-2.4374 Y1.7907  
G01 X-2.4439 Y1.7972  
G01 X-2.4495 Y1.8045  
G01 X-2.4541 Y1.8124  
G01 X-2.4576 Y1.8208  
G01 X-2.4599 Y1.8297  
G01 X-2.4611 Y1.8387  
G00 Z0.1000  
G00 X-2.0216 Y1.9468  
G01 Z-0.0070 F10    
G01 X-2.0216 Y1.9532  F20    
G01 X-2.0203 Y1.9594  
G01 X-2.0179 Y1.9653  
G01 X-2.0144 Y1.9705  
G01 X-2.0099 Y1.9750  
G01 X-2.0046 Y1.9785  
G01 X-1.9988 Y1.9810  
G01 X-1.9925 Y1.9822  
G01 X-1.9862 Y1.9822  
G01 X-1.9800 Y1.9810  
G01 X-1.9741 Y1.9785  
G01 X-1.9688 Y1.9750  
G01 X-1.9643 Y1.9705  
G01 X-1.9608 Y1.9653  
G01 X-1.9584 Y1.9594  
G01 X-1.9572 Y1.9532  
G01 X-1.9572 Y1.9468  
G01 X-1.9584 Y1.9406  
G01 X-1.9608 Y1.9347  
G01 X-1.9643 Y1.9295  
G01 X-1.9688 Y1.9250  
G01 X-1.9741 Y1.9215  
G01 X-1.9800 Y1.9190  
G01 X-1.9862 Y1.9178  
G01 X-1.9925 Y1.9178  
G01 X-1.9988 Y1.9190  
G01 X-2.0046 Y1.9215  
G01 X-2.0099 Y1.9250  
G01 X-2.0144 Y1.9295  
G01 X-2.0179 Y1.9347  
G01 X-2.0203 Y1.9406  
G01 X-2.0216 Y1.9468  
G00 Z0.1000  
G00 X-1.9428 Y1.9468  
G01 Z-0.0070 F10    
G01 X-1.9428 Y1.9532  F20    
G01 X-1.9416 Y1.9594  
G01 X-1.9392 Y1.9653  
G01 X-1.9357 Y1.9705  
G01 X-1.9312 Y1.9750  
G01 X-1.9259 Y1.9785  
G01 X-1.9200 Y1.9810  
G01 X-1.9138 Y1.9822  
G01 X-1.9075 Y1.9822  
G01 X-1.9012 Y1.9810  
G01 X-1.8954 Y1.9785  
G01 X-1.8901 Y1.9750  
G01 X-1.8856 Y1.9705  
G01 X-1.8821 Y1.9653  
G01 X-1.8797 Y1.9594  
G01 X-1.8784 Y1.9532  
G01 X-1.8784 Y1.9468  
G01 X-1.8797 Y1.9406  
G01 X-1.8821 Y1.9347  
G01 X-1.8856 Y1.9295  
G01 X-1.8901 Y1.9250  
G01 X-1.8954 Y1.9215  
G01 X-1.9012 Y1.9190  
G01 X-1.9075 Y1.9178  
G01 X-1.9138 Y1.9178  
G01 X-1.9200 Y1.9190  
G01 X-1.9259 Y1.9215  
G01 X-1.9312 Y1.9250  
G01 X-1.9357 Y1.9295  
G01 X-1.9392 Y1.9347  
G01 X-1.9416 Y1.9406  
G01 X-1.9428 Y1.9468  
G00 Z0.1000  
G00 X-1.7611 Y1.8387  
G01 Z-0.0070 F10    
G01 X-1.7611 Y1.8479  F20    
G01 X-1.7599 Y1.8569  
G01 X-1.7576 Y1.8658  
G01 X-1.7541 Y1.8742  
G01 X-1.7495 Y1.8822  
G01 X-1.7439 Y1.8894  
G01 X-1.7374 Y1.8959  
G01 X-1.7302 Y1.9014  
G01 X-1.7223 Y1.9060  
G01 X-1.7138 Y1.9095  
G01 X-1.7050 Y1.9119  
G01 X-1.6959 Y1.9131  
G01 X-1.6868 Y1.9131  
G01 X-1.6777 Y1.9119  
G01 X-1.6689 Y1.9095  
G01 X-1.6604 Y1.9060  
G01 X-1.6525 Y1.9014  
G01 X-1.6452 Y1.8959  
G01 X-1.6388 Y1.8894  
G01 X-1.6332 Y1.8822  
G01 X-1.6286 Y1.8742  
G01 X-1.6251 Y1.8658  
G01 X-1.6228 Y1.8569  
G01 X-1.6216 Y1.8479  
G01 X-1.6216 Y1.8387  
G01 X-1.6228 Y1.8297  
G01 X-1.6251 Y1.8208  
G01 X-1.6286 Y1.8124  
G01 X-1.6332 Y1.8045  
G01 X-1.6388 Y1.7972  
G01 X-1.6452 Y1.7907  
G01 X-1.6525 Y1.7852  
G01 X-1.6604 Y1.7806  
G01 X-1.6689 Y1.7771  
G01 X-1.6777 Y1.7747  
G01 X-1.6868 Y1.7735  
G01 X-1.6959 Y1.7735  
G01 X-1.7050 Y1.7747  
G01 X-1.7138 Y1.7771  
G01 X-1.7223 Y1.7806  
G01 X-1.7302 Y1.7852  
G01 X-1.7374 Y1.7907  
G01 X-1.7439 Y1.7972  
G01 X-1.7495 Y1.8045  
G01 X-1.7541 Y1.8124  
G01 X-1.7576 Y1.8208  
G01 X-1.7599 Y1.8297  
G01 X-1.7611 Y1.8387  
G00 Z0.1000  
G00 X-2.2784 Y1.8387  
G01 Z-0.0070 F10    
G01 X-2.2784 Y1.8479  F20    
G01 X-2.2772 Y1.8569  
G01 X-2.2749 Y1.8658  
G01 X-2.2714 Y1.8742  
G01 X-2.2668 Y1.8822  
G01 X-2.2612 Y1.8894  
G01 X-2.2548 Y1.8959  
G01 X-2.2475 Y1.9014  
G01 X-2.2396 Y1.9060  
G01 X-2.2311 Y1.9095  
G01 X-2.2223 Y1.9119  
G01 X-2.2132 Y1.9131  
G01 X-2.2041 Y1.9131  
G01 X-2.1950 Y1.9119  
G01 X-2.1862 Y1.9095  
G01 X-2.1777 Y1.9060  
G01 X-2.1698 Y1.9014  
G01 X-2.1626 Y1.8959  
G01 X-2.1561 Y1.8894  
G01 X-2.1505 Y1.8822  
G01 X-2.1459 Y1.8742  
G01 X-2.1424 Y1.8658  
G01 X-2.1401 Y1.8569  
G01 X-2.1389 Y1.8479  
G01 X-2.1389 Y1.8387  
G01 X-2.1401 Y1.8297  
G01 X-2.1424 Y1.8208  
G01 X-2.1459 Y1.8124  
G01 X-2.1505 Y1.8045  
G01 X-2.1561 Y1.7972  
G01 X-2.1626 Y1.7907  
G01 X-2.1698 Y1.7852  
G01 X-2.1777 Y1.7806  
G01 X-2.1862 Y1.7771  
G01 X-2.1950 Y1.7747  
G01 X-2.2041 Y1.7735  
G01 X-2.2132 Y1.7735  
G01 X-2.2223 Y1.7747  
G01 X-2.2311 Y1.7771  
G01 X-2.2396 Y1.7806  
G01 X-2.2475 Y1.7852  
G01 X-2.2548 Y1.7907  
G01 X-2.2612 Y1.7972  
G01 X-2.2668 Y1.8045  
G01 X-2.2714 Y1.8124  
G01 X-2.2749 Y1.8208  
G01 X-2.2772 Y1.8297  
G01 X-2.2784 Y1.8387  
G00 Z0.1000  
G00 X-1.3216 Y1.9468  
G01 Z-0.0070 F10    
G01 X-1.3216 Y1.9532  F20    
G01 X-1.3203 Y1.9594  
G01 X-1.3179 Y1.9653  
G01 X-1.3144 Y1.9705  
G01 X-1.3099 Y1.9750  
G01 X-1.3046 Y1.9785  
G01 X-1.2988 Y1.9810  
G01 X-1.2925 Y1.9822  
G01 X-1.2862 Y1.9822  
G01 X-1.2800 Y1.9810  
G01 X-1.2741 Y1.9785  
G01 X-1.2688 Y1.9750  
G01 X-1.2643 Y1.9705  
G01 X-1.2608 Y1.9653  
G01 X-1.2584 Y1.9594  
G01 X-1.2572 Y1.9532  
G01 X-1.2572 Y1.9468  
G01 X-1.2584 Y1.9406  
G01 X-1.2608 Y1.9347  
G01 X-1.2643 Y1.9295  
G01 X-1.2688 Y1.9250  
G01 X-1.2741 Y1.9215  
G01 X-1.2800 Y1.9190  
G01 X-1.2862 Y1.9178  
G01 X-1.2925 Y1.9178  
G01 X-1.2988 Y1.9190  
G01 X-1.3046 Y1.9215  
G01 X-1.3099 Y1.9250  
G01 X-1.3144 Y1.9295  
G01 X-1.3179 Y1.9347  
G01 X-1.3203 Y1.9406  
G01 X-1.3216 Y1.9468  
G00 Z0.1000  
G00 X-1.2428 Y1.9468  
G01 Z-0.0070 F10    
G01 X-1.2428 Y1.9532  F20    
G01 X-1.2416 Y1.9594  
G01 X-1.2392 Y1.9653  
G01 X-1.2357 Y1.9705  
G01 X-1.2312 Y1.9750  
G01 X-1.2259 Y1.9785  
G01 X-1.2200 Y1.9810  
G01 X-1.2138 Y1.9822  
G01 X-1.2075 Y1.9822  
G01 X-1.2012 Y1.9810  
G01 X-1.1954 Y1.9785  
G01 X-1.1901 Y1.9750  
G01 X-1.1856 Y1.9705  
G01 X-1.1821 Y1.9653  
G01 X-1.1797 Y1.9594  
G01 X-1.1784 Y1.9532  
G01 X-1.1784 Y1.9468  
G01 X-1.1797 Y1.9406  
G01 X-1.1821 Y1.9347  
G01 X-1.1856 Y1.9295  
G01 X-1.1901 Y1.9250  
G01 X-1.1954 Y1.9215  
G01 X-1.2012 Y1.9190  
G01 X-1.2075 Y1.9178  
G01 X-1.2138 Y1.9178  
G01 X-1.2200 Y1.9190  
G01 X-1.2259 Y1.9215  
G01 X-1.2312 Y1.9250  
G01 X-1.2357 Y1.9295  
G01 X-1.2392 Y1.9347  
G01 X-1.2416 Y1.9406  
G01 X-1.2428 Y1.9468  
G00 Z0.1000  
G00 X-1.0611 Y1.8387  
G01 Z-0.0070 F10    
G01 X-1.0611 Y1.8479  F20    
G01 X-1.0599 Y1.8569  
G01 X-1.0576 Y1.8658  
G01 X-1.0541 Y1.8742  
G01 X-1.0495 Y1.8822  
G01 X-1.0439 Y1.8894  
G01 X-1.0374 Y1.8959  
G01 X-1.0302 Y1.9014  
G01 X-1.0223 Y1.9060  
G01 X-1.0138 Y1.9095  
G01 X-1.0050 Y1.9119  
G01 X-0.9959 Y1.9131  
G01 X-0.9868 Y1.9131  
G01 X-0.9777 Y1.9119  
G01 X-0.9689 Y1.9095  
G01 X-0.9604 Y1.9060  
G01 X-0.9525 Y1.9014  
G01 X-0.9452 Y1.8959  
G01 X-0.9388 Y1.8894  
G01 X-0.9332 Y1.8822  
G01 X-0.9286 Y1.8742  
G01 X-0.9251 Y1.8658  
G01 X-0.9228 Y1.8569  
G01 X-0.9216 Y1.8479  
G01 X-0.9216 Y1.8387  
G01 X-0.9228 Y1.8297  
G01 X-0.9251 Y1.8208  
G01 X-0.9286 Y1.8124  
G01 X-0.9332 Y1.8045  
G01 X-0.9388 Y1.7972  
G01 X-0.9452 Y1.7907  
G01 X-0.9525 Y1.7852  
G01 X-0.9604 Y1.7806  
G01 X-0.9689 Y1.7771  
G01 X-0.9777 Y1.7747  
G01 X-0.9868 Y1.7735  
G01 X-0.9959 Y1.7735  
G01 X-1.0050 Y1.7747  
G01 X-1.0138 Y1.7771  
G01 X-1.0223 Y1.7806  
G01 X-1.0302 Y1.7852  
G01 X-1.0374 Y1.7907  
G01 X-1.0439 Y1.7972  
G01 X-1.0495 Y1.8045  
G01 X-1.0541 Y1.8124  
G01 X-1.0576 Y1.8208  
G01 X-1.0599 Y1.8297  
G01 X-1.0611 Y1.8387  
G00 Z0.1000  
G00 X-1.5784 Y1.8387  
G01 Z-0.0070 F10    
G01 X-1.5784 Y1.8479  F20    
G01 X-1.5772 Y1.8569  
G01 X-1.5749 Y1.8658  
G01 X-1.5714 Y1.8742  
G01 X-1.5668 Y1.8822  
G01 X-1.5612 Y1.8894  
G01 X-1.5548 Y1.8959  
G01 X-1.5475 Y1.9014  
G01 X-1.5396 Y1.9060  
G01 X-1.5311 Y1.9095  
G01 X-1.5223 Y1.9119  
G01 X-1.5132 Y1.9131  
G01 X-1.5041 Y1.9131  
G01 X-1.4950 Y1.9119  
G01 X-1.4862 Y1.9095  
G01 X-1.4777 Y1.9060  
G01 X-1.4698 Y1.9014  
G01 X-1.4626 Y1.8959  
G01 X-1.4561 Y1.8894  
G01 X-1.4505 Y1.8822  
G01 X-1.4459 Y1.8742  
G01 X-1.4424 Y1.8658  
G01 X-1.4401 Y1.8569  
G01 X-1.4389 Y1.8479  
G01 X-1.4389 Y1.8387  
G01 X-1.4401 Y1.8297  
G01 X-1.4424 Y1.8208  
G01 X-1.4459 Y1.8124  
G01 X-1.4505 Y1.8045  
G01 X-1.4561 Y1.7972  
G01 X-1.4626 Y1.7907  
G01 X-1.4698 Y1.7852  
G01 X-1.4777 Y1.7806  
G01 X-1.4862 Y1.7771  
G01 X-1.4950 Y1.7747  
G01 X-1.5041 Y1.7735  
G01 X-1.5132 Y1.7735  
G01 X-1.5223 Y1.7747  
G01 X-1.5311 Y1.7771  
G01 X-1.5396 Y1.7806  
G01 X-1.5475 Y1.7852  
G01 X-1.5548 Y1.7907  
G01 X-1.5612 Y1.7972  
G01 X-1.5668 Y1.8045  
G01 X-1.5714 Y1.8124  
G01 X-1.5749 Y1.8208  
G01 X-1.5772 Y1.8297  
G01 X-1.5784 Y1.8387  
G00 Z0.1000  
G00 X-0.6216 Y1.9468  
G01 Z-0.0070 F10    
G01 X-0.6216 Y1.9532  F20    
G01 X-0.6203 Y1.9594  
G01 X-0.6179 Y1.9653  
G01 X-0.6144 Y1.9705  
G01 X-0.6099 Y1.9750  
G01 X-0.6046 Y1.9785  
G01 X-0.5988 Y1.9810  
G01 X-0.5925 Y1.9822  
G01 X-0.5862 Y1.9822  
G01 X-0.5800 Y1.9810  
G01 X-0.5741 Y1.9785  
G01 X-0.5688 Y1.9750  
G01 X-0.5643 Y1.9705  
G01 X-0.5608 Y1.9653  
G01 X-0.5584 Y1.9594  
G01 X-0.5572 Y1.9532  
G01 X-0.5572 Y1.9468  
G01 X-0.5584 Y1.9406  
G01 X-0.5608 Y1.9347  
G01 X-0.5643 Y1.9295  
G01 X-0.5688 Y1.9250  
G01 X-0.5741 Y1.9215  
G01 X-0.5800 Y1.9190  
G01 X-0.5862 Y1.9178  
G01 X-0.5925 Y1.9178  
G01 X-0.5988 Y1.9190  
G01 X-0.6046 Y1.9215  
G01 X-0.6099 Y1.9250  
G01 X-0.6144 Y1.9295  
G01 X-0.6179 Y1.9347  
G01 X-0.6203 Y1.9406  
G01 X-0.6216 Y1.9468  
G00 Z0.1000  
G00 X-0.5428 Y1.9468  
G01 Z-0.0070 F10    
G01 X-0.5428 Y1.9532  F20    
G01 X-0.5416 Y1.9594  
G01 X-0.5392 Y1.9653  
G01 X-0.5357 Y1.9705  
G01 X-0.5312 Y1.9750  
G01 X-0.5259 Y1.9785  
G01 X-0.5200 Y1.9810  
G01 X-0.5138 Y1.9822  
G01 X-0.5075 Y1.9822  
G01 X-0.5012 Y1.9810  
G01 X-0.4954 Y1.9785  
G01 X-0.4901 Y1.9750  
G01 X-0.4856 Y1.9705  
G01 X-0.4821 Y1.9653  
G01 X-0.4797 Y1.9594  
G01 X-0.4784 Y1.9532  
G01 X-0.4784 Y1.9468  
G01 X-0.4797 Y1.9406  
G01 X-0.4821 Y1.9347  
G01 X-0.4856 Y1.9295  
G01 X-0.4901 Y1.9250  
G01 X-0.4954 Y1.9215  
G01 X-0.5012 Y1.9190  
G01 X-0.5075 Y1.9178  
G01 X-0.5138 Y1.9178  
G01 X-0.5200 Y1.9190  
G01 X-0.5259 Y1.9215  
G01 X-0.5312 Y1.9250  
G01 X-0.5357 Y1.9295  
G01 X-0.5392 Y1.9347  
G01 X-0.5416 Y1.9406  
G01 X-0.5428 Y1.9468  
G00 Z0.1000  
G00 X-0.3611 Y1.8387  
G01 Z-0.0070 F10    
G01 X-0.3611 Y1.8479  F20    
G01 X-0.3599 Y1.8569  
G01 X-0.3576 Y1.8658  
G01 X-0.3541 Y1.8742  
G01 X-0.3495 Y1.8822  
G01 X-0.3439 Y1.8894  
G01 X-0.3374 Y1.8959  
G01 X-0.3302 Y1.9014  
G01 X-0.3223 Y1.9060  
G01 X-0.3138 Y1.9095  
G01 X-0.3050 Y1.9119  
G01 X-0.2959 Y1.9131  
G01 X-0.2868 Y1.9131  
G01 X-0.2777 Y1.9119  
G01 X-0.2689 Y1.9095  
G01 X-0.2604 Y1.9060  
G01 X-0.2525 Y1.9014  
G01 X-0.2452 Y1.8959  
G01 X-0.2388 Y1.8894  
G01 X-0.2332 Y1.8822  
G01 X-0.2286 Y1.8742  
G01 X-0.2251 Y1.8658  
G01 X-0.2228 Y1.8569  
G01 X-0.2216 Y1.8479  
G01 X-0.2216 Y1.8387  
G01 X-0.2228 Y1.8297  
G01 X-0.2251 Y1.8208  
G01 X-0.2286 Y1.8124  
G01 X-0.2332 Y1.8045  
G01 X-0.2388 Y1.7972  
G01 X-0.2452 Y1.7907  
G01 X-0.2525 Y1.7852  
G01 X-0.2604 Y1.7806  
G01 X-0.2689 Y1.7771  
G01 X-0.2777 Y1.7747  
G01 X-0.2868 Y1.7735  
G01 X-0.2959 Y1.7735  
G01 X-0.3050 Y1.7747  
G01 X-0.3138 Y1.7771  
G01 X-0.3223 Y1.7806  
G01 X-0.3302 Y1.7852  
G01 X-0.3374 Y1.7907  
G01 X-0.3439 Y1.7972  
G01 X-0.3495 Y1.8045  
G01 X-0.3541 Y1.8124  
G01 X-0.3576 Y1.8208  
G01 X-0.3599 Y1.8297  
G01 X-0.3611 Y1.8387  
G00 Z0.1000  
G00 X-0.8784 Y1.8387  
G01 Z-0.0070 F10    
G01 X-0.8784 Y1.8479  F20    
G01 X-0.8772 Y1.8569  
G01 X-0.8749 Y1.8658  
G01 X-0.8714 Y1.8742  
G01 X-0.8668 Y1.8822  
G01 X-0.8612 Y1.8894  
G01 X-0.8548 Y1.8959  
G01 X-0.8475 Y1.9014  
G01 X-0.8396 Y1.9060  
G01 X-0.8311 Y1.9095  
G01 X-0.8223 Y1.9119  
G01 X-0.8132 Y1.9131  
G01 X-0.8041 Y1.9131  
G01 X-0.7950 Y1.9119  
G01 X-0.7862 Y1.9095  
G01 X-0.7777 Y1.9060  
G01 X-0.7698 Y1.9014  
G01 X-0.7626 Y1.8959  
G01 X-0.7561 Y1.8894  
G01 X-0.7505 Y1.8822  
G01 X-0.7459 Y1.8742  
G01 X-0.7424 Y1.8658  
G01 X-0.7401 Y1.8569  
G01 X-0.7389 Y1.8479  
G01 X-0.7389 Y1.8387  
G01 X-0.7401 Y1.8297  
G01 X-0.7424 Y1.8208  
G01 X-0.7459 Y1.8124  
G01 X-0.7505 Y1.8045  
G01 X-0.7561 Y1.7972  
G01 X-0.7626 Y1.7907  
G01 X-0.7698 Y1.7852  
G01 X-0.7777 Y1.7806  
G01 X-0.7862 Y1.7771  
G01 X-0.7950 Y1.7747  
G01 X-0.8041 Y1.7735  
G01 X-0.8132 Y1.7735  
G01 X-0.8223 Y1.7747  
G01 X-0.8311 Y1.7771  
G01 X-0.8396 Y1.7806  
G01 X-0.8475 Y1.7852  
G01 X-0.8548 Y1.7907  
G01 X-0.8612 Y1.7972  
G01 X-0.8668 Y1.8045  
G01 X-0.8714 Y1.8124  
G01 X-0.8749 Y1.8208  
G01 X-0.8772 Y1.8297  
G01 X-0.8784 Y1.8387  
G00 Z0.1000  
G00 X-2.5928 Y2.6968  
G01 Z-0.0070 F10    
G01 X-2.5928 Y2.7032  F20    
G01 X-2.5916 Y2.7094  
G01 X-2.5892 Y2.7153  
G01 X-2.5857 Y2.7205  
G01 X-2.5812 Y2.7250  
G01 X-2.5759 Y2.7285  
G01 X-2.5700 Y2.7310  
G01 X-2.5638 Y2.7322  
G01 X-2.5575 Y2.7322  
G01 X-2.5512 Y2.7310  
G01 X-2.5454 Y2.7285  
G01 X-2.5401 Y2.7250  
G01 X-2.5356 Y2.7205  
G01 X-2.5321 Y2.7153  
G01 X-2.5297 Y2.7094  
G01 X-2.5284 Y2.7032  
G01 X-2.5284 Y2.6968  
G01 X-2.5297 Y2.6906  
G01 X-2.5321 Y2.6847  
G01 X-2.5356 Y2.6795  
G01 X-2.5401 Y2.6750  
G01 X-2.5454 Y2.6715  
G01 X-2.5512 Y2.6690  
G01 X-2.5575 Y2.6678  
G01 X-2.5638 Y2.6678  
G01 X-2.5700 Y2.6690  
G01 X-2.5759 Y2.6715  
G01 X-2.5812 Y2.6750  
G01 X-2.5857 Y2.6795  
G01 X-2.5892 Y2.6847  
G01 X-2.5916 Y2.6906  
G01 X-2.5928 Y2.6968  
G00 Z0.1000  
G00 X-2.6716 Y2.6968  
G01 Z-0.0070 F10    
G01 X-2.6716 Y2.7032  F20    
G01 X-2.6703 Y2.7094  
G01 X-2.6679 Y2.7153  
G01 X-2.6644 Y2.7205  
G01 X-2.6599 Y2.7250  
G01 X-2.6546 Y2.7285  
G01 X-2.6488 Y2.7310  
G01 X-2.6425 Y2.7322  
G01 X-2.6362 Y2.7322  
G01 X-2.6300 Y2.7310  
G01 X-2.6241 Y2.7285  
G01 X-2.6188 Y2.7250  
G01 X-2.6143 Y2.7205  
G01 X-2.6108 Y2.7153  
G01 X-2.6084 Y2.7094  
G01 X-2.6072 Y2.7032  
G01 X-2.6072 Y2.6968  
G01 X-2.6084 Y2.6906  
G01 X-2.6108 Y2.6847  
G01 X-2.6143 Y2.6795  
G01 X-2.6188 Y2.6750  
G01 X-2.6241 Y2.6715  
G01 X-2.6300 Y2.6690  
G01 X-2.6362 Y2.6678  
G01 X-2.6425 Y2.6678  
G01 X-2.6488 Y2.6690  
G01 X-2.6546 Y2.6715  
G01 X-2.6599 Y2.6750  
G01 X-2.6644 Y2.6795  
G01 X-2.6679 Y2.6847  
G01 X-2.6703 Y2.6906  
G01 X-2.6716 Y2.6968  
G00 Z0.1000  
G00 X-2.4111 Y2.8021  
G01 Z-0.0070 F10    
G01 X-2.4111 Y2.8113  F20    
G01 X-2.4099 Y2.8203  
G01 X-2.4076 Y2.8292  
G01 X-2.4041 Y2.8376  
G01 X-2.3995 Y2.8455  
G01 X-2.3939 Y2.8528  
G01 X-2.3874 Y2.8593  
G01 X-2.3802 Y2.8648  
G01 X-2.3723 Y2.8694  
G01 X-2.3638 Y2.8729  
G01 X-2.3550 Y2.8753  
G01 X-2.3459 Y2.8765  
G01 X-2.3368 Y2.8765  
G01 X-2.3277 Y2.8753  
G01 X-2.3189 Y2.8729  
G01 X-2.3104 Y2.8694  
G01 X-2.3025 Y2.8648  
G01 X-2.2952 Y2.8593  
G01 X-2.2888 Y2.8528  
G01 X-2.2832 Y2.8455  
G01 X-2.2786 Y2.8376  
G01 X-2.2751 Y2.8292  
G01 X-2.2728 Y2.8203  
G01 X-2.2716 Y2.8113  
G01 X-2.2716 Y2.8021  
G01 X-2.2728 Y2.7931  
G01 X-2.2751 Y2.7842  
G01 X-2.2786 Y2.7758  
G01 X-2.2832 Y2.7678  
G01 X-2.2888 Y2.7606  
G01 X-2.2952 Y2.7541  
G01 X-2.3025 Y2.7486  
G01 X-2.3104 Y2.7440  
G01 X-2.3189 Y2.7405  
G01 X-2.3277 Y2.7381  
G01 X-2.3368 Y2.7369  
G01 X-2.3459 Y2.7369  
G01 X-2.3550 Y2.7381  
G01 X-2.3638 Y2.7405  
G01 X-2.3723 Y2.7440  
G01 X-2.3802 Y2.7486  
G01 X-2.3874 Y2.7541  
G01 X-2.3939 Y2.7606  
G01 X-2.3995 Y2.7678  
G01 X-2.4041 Y2.7758  
G01 X-2.4076 Y2.7842  
G01 X-2.4099 Y2.7931  
G01 X-2.4111 Y2.8021  
G00 Z0.1000  
G00 X-1.8928 Y2.6968  
G01 Z-0.0070 F10    
G01 X-1.8928 Y2.7032  F20    
G01 X-1.8916 Y2.7094  
G01 X-1.8892 Y2.7153  
G01 X-1.8857 Y2.7205  
G01 X-1.8812 Y2.7250  
G01 X-1.8759 Y2.7285  
G01 X-1.8700 Y2.7310  
G01 X-1.8638 Y2.7322  
G01 X-1.8575 Y2.7322  
G01 X-1.8512 Y2.7310  
G01 X-1.8454 Y2.7285  
G01 X-1.8401 Y2.7250  
G01 X-1.8356 Y2.7205  
G01 X-1.8321 Y2.7153  
G01 X-1.8297 Y2.7094  
G01 X-1.8284 Y2.7032  
G01 X-1.8284 Y2.6968  
G01 X-1.8297 Y2.6906  
G01 X-1.8321 Y2.6847  
G01 X-1.8356 Y2.6795  
G01 X-1.8401 Y2.6750  
G01 X-1.8454 Y2.6715  
G01 X-1.8512 Y2.6690  
G01 X-1.8575 Y2.6678  
G01 X-1.8638 Y2.6678  
G01 X-1.8700 Y2.6690  
G01 X-1.8759 Y2.6715  
G01 X-1.8812 Y2.6750  
G01 X-1.8857 Y2.6795  
G01 X-1.8892 Y2.6847  
G01 X-1.8916 Y2.6906  
G01 X-1.8928 Y2.6968  
G00 Z0.1000  
G00 X-1.9716 Y2.6968  
G01 Z-0.0070 F10    
G01 X-1.9716 Y2.7032  F20    
G01 X-1.9703 Y2.7094  
G01 X-1.9679 Y2.7153  
G01 X-1.9644 Y2.7205  
G01 X-1.9599 Y2.7250  
G01 X-1.9546 Y2.7285  
G01 X-1.9488 Y2.7310  
G01 X-1.9425 Y2.7322  
G01 X-1.9362 Y2.7322  
G01 X-1.9300 Y2.7310  
G01 X-1.9241 Y2.7285  
G01 X-1.9188 Y2.7250  
G01 X-1.9143 Y2.7205  
G01 X-1.9108 Y2.7153  
G01 X-1.9084 Y2.7094  
G01 X-1.9072 Y2.7032  
G01 X-1.9072 Y2.6968  
G01 X-1.9084 Y2.6906  
G01 X-1.9108 Y2.6847  
G01 X-1.9143 Y2.6795  
G01 X-1.9188 Y2.6750  
G01 X-1.9241 Y2.6715  
G01 X-1.9300 Y2.6690  
G01 X-1.9362 Y2.6678  
G01 X-1.9425 Y2.6678  
G01 X-1.9488 Y2.6690  
G01 X-1.9546 Y2.6715  
G01 X-1.9599 Y2.6750  
G01 X-1.9644 Y2.6795  
G01 X-1.9679 Y2.6847  
G01 X-1.9703 Y2.6906  
G01 X-1.9716 Y2.6968  
G00 Z0.1000  
G00 X-2.2284 Y2.8021  
G01 Z-0.0070 F10    
G01 X-2.2284 Y2.8113  F20    
G01 X-2.2272 Y2.8203  
G01 X-2.2249 Y2.8292  
G01 X-2.2214 Y2.8376  
G01 X-2.2168 Y2.8455  
G01 X-2.2112 Y2.8528  
G01 X-2.2048 Y2.8593  
G01 X-2.1975 Y2.8648  
G01 X-2.1896 Y2.8694  
G01 X-2.1811 Y2.8729  
G01 X-2.1723 Y2.8753  
G01 X-2.1632 Y2.8765  
G01 X-2.1541 Y2.8765  
G01 X-2.1450 Y2.8753  
G01 X-2.1362 Y2.8729  
G01 X-2.1277 Y2.8694  
G01 X-2.1198 Y2.8648  
G01 X-2.1126 Y2.8593  
G01 X-2.1061 Y2.8528  
G01 X-2.1005 Y2.8455  
G01 X-2.0959 Y2.8376  
G01 X-2.0924 Y2.8292  
G01 X-2.0901 Y2.8203  
G01 X-2.0889 Y2.8113  
G01 X-2.0889 Y2.8021  
G01 X-2.0901 Y2.7931  
G01 X-2.0924 Y2.7842  
G01 X-2.0959 Y2.7758  
G01 X-2.1005 Y2.7678  
G01 X-2.1061 Y2.7606  
G01 X-2.1126 Y2.7541  
G01 X-2.1198 Y2.7486  
G01 X-2.1277 Y2.7440  
G01 X-2.1362 Y2.7405  
G01 X-2.1450 Y2.7381  
G01 X-2.1541 Y2.7369  
G01 X-2.1632 Y2.7369  
G01 X-2.1723 Y2.7381  
G01 X-2.1811 Y2.7405  
G01 X-2.1896 Y2.7440  
G01 X-2.1975 Y2.7486  
G01 X-2.2048 Y2.7541  
G01 X-2.2112 Y2.7606  
G01 X-2.2168 Y2.7678  
G01 X-2.2214 Y2.7758  
G01 X-2.2249 Y2.7842  
G01 X-2.2272 Y2.7931  
G01 X-2.2284 Y2.8021  
G00 Z0.1000  
G00 X-1.7111 Y2.8021  
G01 Z-0.0070 F10    
G01 X-1.7111 Y2.8113  F20    
G01 X-1.7099 Y2.8203  
G01 X-1.7076 Y2.8292  
G01 X-1.7041 Y2.8376  
G01 X-1.6995 Y2.8455  
G01 X-1.6939 Y2.8528  
G01 X-1.6874 Y2.8593  
G01 X-1.6802 Y2.8648  
G01 X-1.6723 Y2.8694  
G01 X-1.6638 Y2.8729  
G01 X-1.6550 Y2.8753  
G01 X-1.6459 Y2.8765  
G01 X-1.6368 Y2.8765  
G01 X-1.6277 Y2.8753  
G01 X-1.6189 Y2.8729  
G01 X-1.6104 Y2.8694  
G01 X-1.6025 Y2.8648  
G01 X-1.5952 Y2.8593  
G01 X-1.5888 Y2.8528  
G01 X-1.5832 Y2.8455  
G01 X-1.5786 Y2.8376  
G01 X-1.5751 Y2.8292  
G01 X-1.5728 Y2.8203  
G01 X-1.5716 Y2.8113  
G01 X-1.5716 Y2.8021  
G01 X-1.5728 Y2.7931  
G01 X-1.5751 Y2.7842  
G01 X-1.5786 Y2.7758  
G01 X-1.5832 Y2.7678  
G01 X-1.5888 Y2.7606  
G01 X-1.5952 Y2.7541  
G01 X-1.6025 Y2.7486  
G01 X-1.6104 Y2.7440  
G01 X-1.6189 Y2.7405  
G01 X-1.6277 Y2.7381  
G01 X-1.6368 Y2.7369  
G01 X-1.6459 Y2.7369  
G01 X-1.6550 Y2.7381  
G01 X-1.6638 Y2.7405  
G01 X-1.6723 Y2.7440  
G01 X-1.6802 Y2.7486  
G01 X-1.6874 Y2.7541  
G01 X-1.6939 Y2.7606  
G01 X-1.6995 Y2.7678  
G01 X-1.7041 Y2.7758  
G01 X-1.7076 Y2.7842  
G01 X-1.7099 Y2.7931  
G01 X-1.7111 Y2.8021  
G00 Z0.1000  
G00 X-1.1928 Y2.6968  
G01 Z-0.0070 F10    
G01 X-1.1928 Y2.7032  F20    
G01 X-1.1916 Y2.7094  
G01 X-1.1892 Y2.7153  
G01 X-1.1857 Y2.7205  
G01 X-1.1812 Y2.7250  
G01 X-1.1759 Y2.7285  
G01 X-1.1700 Y2.7310  
G01 X-1.1638 Y2.7322  
G01 X-1.1575 Y2.7322  
G01 X-1.1512 Y2.7310  
G01 X-1.1454 Y2.7285  
G01 X-1.1401 Y2.7250  
G01 X-1.1356 Y2.7205  
G01 X-1.1321 Y2.7153  
G01 X-1.1297 Y2.7094  
G01 X-1.1284 Y2.7032  
G01 X-1.1284 Y2.6968  
G01 X-1.1297 Y2.6906  
G01 X-1.1321 Y2.6847  
G01 X-1.1356 Y2.6795  
G01 X-1.1401 Y2.6750  
G01 X-1.1454 Y2.6715  
G01 X-1.1512 Y2.6690  
G01 X-1.1575 Y2.6678  
G01 X-1.1638 Y2.6678  
G01 X-1.1700 Y2.6690  
G01 X-1.1759 Y2.6715  
G01 X-1.1812 Y2.6750  
G01 X-1.1857 Y2.6795  
G01 X-1.1892 Y2.6847  
G01 X-1.1916 Y2.6906  
G01 X-1.1928 Y2.6968  
G00 Z0.1000  
G00 X-1.2716 Y2.6968  
G01 Z-0.0070 F10    
G01 X-1.2716 Y2.7032  F20    
G01 X-1.2703 Y2.7094  
G01 X-1.2679 Y2.7153  
G01 X-1.2644 Y2.7205  
G01 X-1.2599 Y2.7250  
G01 X-1.2546 Y2.7285  
G01 X-1.2488 Y2.7310  
G01 X-1.2425 Y2.7322  
G01 X-1.2362 Y2.7322  
G01 X-1.2300 Y2.7310  
G01 X-1.2241 Y2.7285  
G01 X-1.2188 Y2.7250  
G01 X-1.2143 Y2.7205  
G01 X-1.2108 Y2.7153  
G01 X-1.2084 Y2.7094  
G01 X-1.2072 Y2.7032  
G01 X-1.2072 Y2.6968  
G01 X-1.2084 Y2.6906  
G01 X-1.2108 Y2.6847  
G01 X-1.2143 Y2.6795  
G01 X-1.2188 Y2.6750  
G01 X-1.2241 Y2.6715  
G01 X-1.2300 Y2.6690  
G01 X-1.2362 Y2.6678  
G01 X-1.2425 Y2.6678  
G01 X-1.2488 Y2.6690  
G01 X-1.2546 Y2.6715  
G01 X-1.2599 Y2.6750  
G01 X-1.2644 Y2.6795  
G01 X-1.2679 Y2.6847  
G01 X-1.2703 Y2.6906  
G01 X-1.2716 Y2.6968  
G00 Z0.1000  
G00 X-1.5284 Y2.8021  
G01 Z-0.0070 F10    
G01 X-1.5284 Y2.8113  F20    
G01 X-1.5272 Y2.8203  
G01 X-1.5249 Y2.8292  
G01 X-1.5214 Y2.8376  
G01 X-1.5168 Y2.8455  
G01 X-1.5112 Y2.8528  
G01 X-1.5048 Y2.8593  
G01 X-1.4975 Y2.8648  
G01 X-1.4896 Y2.8694  
G01 X-1.4811 Y2.8729  
G01 X-1.4723 Y2.8753  
G01 X-1.4632 Y2.8765  
G01 X-1.4541 Y2.8765  
G01 X-1.4450 Y2.8753  
G01 X-1.4362 Y2.8729  
G01 X-1.4277 Y2.8694  
G01 X-1.4198 Y2.8648  
G01 X-1.4126 Y2.8593  
G01 X-1.4061 Y2.8528  
G01 X-1.4005 Y2.8455  
G01 X-1.3959 Y2.8376  
G01 X-1.3924 Y2.8292  
G01 X-1.3901 Y2.8203  
G01 X-1.3889 Y2.8113  
G01 X-1.3889 Y2.8021  
G01 X-1.3901 Y2.7931  
G01 X-1.3924 Y2.7842  
G01 X-1.3959 Y2.7758  
G01 X-1.4005 Y2.7678  
G01 X-1.4061 Y2.7606  
G01 X-1.4126 Y2.7541  
G01 X-1.4198 Y2.7486  
G01 X-1.4277 Y2.7440  
G01 X-1.4362 Y2.7405  
G01 X-1.4450 Y2.7381  
G01 X-1.4541 Y2.7369  
G01 X-1.4632 Y2.7369  
G01 X-1.4723 Y2.7381  
G01 X-1.4811 Y2.7405  
G01 X-1.4896 Y2.7440  
G01 X-1.4975 Y2.7486  
G01 X-1.5048 Y2.7541  
G01 X-1.5112 Y2.7606  
G01 X-1.5168 Y2.7678  
G01 X-1.5214 Y2.7758  
G01 X-1.5249 Y2.7842  
G01 X-1.5272 Y2.7931  
G01 X-1.5284 Y2.8021  
G00 Z0.1000  
G00 X-1.0111 Y2.8021  
G01 Z-0.0070 F10    
G01 X-1.0111 Y2.8113  F20    
G01 X-1.0099 Y2.8203  
G01 X-1.0076 Y2.8292  
G01 X-1.0041 Y2.8376  
G01 X-0.9995 Y2.8455  
G01 X-0.9939 Y2.8528  
G01 X-0.9874 Y2.8593  
G01 X-0.9802 Y2.8648  
G01 X-0.9723 Y2.8694  
G01 X-0.9638 Y2.8729  
G01 X-0.9550 Y2.8753  
G01 X-0.9459 Y2.8765  
G01 X-0.9368 Y2.8765  
G01 X-0.9277 Y2.8753  
G01 X-0.9189 Y2.8729  
G01 X-0.9104 Y2.8694  
G01 X-0.9025 Y2.8648  
G01 X-0.8952 Y2.8593  
G01 X-0.8888 Y2.8528  
G01 X-0.8832 Y2.8455  
G01 X-0.8786 Y2.8376  
G01 X-0.8751 Y2.8292  
G01 X-0.8728 Y2.8203  
G01 X-0.8716 Y2.8113  
G01 X-0.8716 Y2.8021  
G01 X-0.8728 Y2.7931  
G01 X-0.8751 Y2.7842  
G01 X-0.8786 Y2.7758  
G01 X-0.8832 Y2.7678  
G01 X-0.8888 Y2.7606  
G01 X-0.8952 Y2.7541  
G01 X-0.9025 Y2.7486  
G01 X-0.9104 Y2.7440  
G01 X-0.9189 Y2.7405  
G01 X-0.9277 Y2.7381  
G01 X-0.9368 Y2.7369  
G01 X-0.9459 Y2.7369  
G01 X-0.9550 Y2.7381  
G01 X-0.9638 Y2.7405  
G01 X-0.9723 Y2.7440  
G01 X-0.9802 Y2.7486  
G01 X-0.9874 Y2.7541  
G01 X-0.9939 Y2.7606  
G01 X-0.9995 Y2.7678  
G01 X-1.0041 Y2.7758  
G01 X-1.0076 Y2.7842  
G01 X-1.0099 Y2.7931  
G01 X-1.0111 Y2.8021  
G00 Z0.1000  
G00 X-0.4928 Y2.6968  
G01 Z-0.0070 F10    
G01 X-0.4928 Y2.7032  F20    
G01 X-0.4916 Y2.7094  
G01 X-0.4892 Y2.7153  
G01 X-0.4857 Y2.7205  
G01 X-0.4812 Y2.7250  
G01 X-0.4759 Y2.7285  
G01 X-0.4700 Y2.7310  
G01 X-0.4638 Y2.7322  
G01 X-0.4575 Y2.7322  
G01 X-0.4512 Y2.7310  
G01 X-0.4454 Y2.7285  
G01 X-0.4401 Y2.7250  
G01 X-0.4356 Y2.7205  
G01 X-0.4321 Y2.7153  
G01 X-0.4297 Y2.7094  
G01 X-0.4284 Y2.7032  
G01 X-0.4284 Y2.6968  
G01 X-0.4297 Y2.6906  
G01 X-0.4321 Y2.6847  
G01 X-0.4356 Y2.6795  
G01 X-0.4401 Y2.6750  
G01 X-0.4454 Y2.6715  
G01 X-0.4512 Y2.6690  
G01 X-0.4575 Y2.6678  
G01 X-0.4638 Y2.6678  
G01 X-0.4700 Y2.6690  
G01 X-0.4759 Y2.6715  
G01 X-0.4812 Y2.6750  
G01 X-0.4857 Y2.6795  
G01 X-0.4892 Y2.6847  
G01 X-0.4916 Y2.6906  
G01 X-0.4928 Y2.6968  
G00 Z0.1000  
G00 X-0.5716 Y2.6968  
G01 Z-0.0070 F10    
G01 X-0.5716 Y2.7032  F20    
G01 X-0.5703 Y2.7094  
G01 X-0.5679 Y2.7153  
G01 X-0.5644 Y2.7205  
G01 X-0.5599 Y2.7250  
G01 X-0.5546 Y2.7285  
G01 X-0.5488 Y2.7310  
G01 X-0.5425 Y2.7322  
G01 X-0.5362 Y2.7322  
G01 X-0.5300 Y2.7310  
G01 X-0.5241 Y2.7285  
G01 X-0.5188 Y2.7250  
G01 X-0.5143 Y2.7205  
G01 X-0.5108 Y2.7153  
G01 X-0.5084 Y2.7094  
G01 X-0.5072 Y2.7032  
G01 X-0.5072 Y2.6968  
G01 X-0.5084 Y2.6906  
G01 X-0.5108 Y2.6847  
G01 X-0.5143 Y2.6795  
G01 X-0.5188 Y2.6750  
G01 X-0.5241 Y2.6715  
G01 X-0.5300 Y2.6690  
G01 X-0.5362 Y2.6678  
G01 X-0.5425 Y2.6678  
G01 X-0.5488 Y2.6690  
G01 X-0.5546 Y2.6715  
G01 X-0.5599 Y2.6750  
G01 X-0.5644 Y2.6795  
G01 X-0.5679 Y2.6847  
G01 X-0.5703 Y2.6906  
G01 X-0.5716 Y2.6968  
G00 Z0.1000  
G00 X-0.8284 Y2.8021  
G01 Z-0.0070 F10    
G01 X-0.8284 Y2.8113  F20    
G01 X-0.8272 Y2.8203  
G01 X-0.8249 Y2.8292  
G01 X-0.8214 Y2.8376  
G01 X-0.8168 Y2.8455  
G01 X-0.8112 Y2.8528  
G01 X-0.8048 Y2.8593  
G01 X-0.7975 Y2.8648  
G01 X-0.7896 Y2.8694  
G01 X-0.7811 Y2.8729  
G01 X-0.7723 Y2.8753  
G01 X-0.7632 Y2.8765  
G01 X-0.7541 Y2.8765  
G01 X-0.7450 Y2.8753  
G01 X-0.7362 Y2.8729  
G01 X-0.7277 Y2.8694  
G01 X-0.7198 Y2.8648  
G01 X-0.7126 Y2.8593  
G01 X-0.7061 Y2.8528  
G01 X-0.7005 Y2.8455  
G01 X-0.6959 Y2.8376  
G01 X-0.6924 Y2.8292  
G01 X-0.6901 Y2.8203  
G01 X-0.6889 Y2.8113  
G01 X-0.6889 Y2.8021  
G01 X-0.6901 Y2.7931  
G01 X-0.6924 Y2.7842  
G01 X-0.6959 Y2.7758  
G01 X-0.7005 Y2.7678  
G01 X-0.7061 Y2.7606  
G01 X-0.7126 Y2.7541  
G01 X-0.7198 Y2.7486  
G01 X-0.7277 Y2.7440  
G01 X-0.7362 Y2.7405  
G01 X-0.7450 Y2.7381  
G01 X-0.7541 Y2.7369  
G01 X-0.7632 Y2.7369  
G01 X-0.7723 Y2.7381  
G01 X-0.7811 Y2.7405  
G01 X-0.7896 Y2.7440  
G01 X-0.7975 Y2.7486  
G01 X-0.8048 Y2.7541  
G01 X-0.8112 Y2.7606  
G01 X-0.8168 Y2.7678  
G01 X-0.8214 Y2.7758  
G01 X-0.8249 Y2.7842  
G01 X-0.8272 Y2.7931  
G01 X-0.8284 Y2.8021  
G00 Z0.1000  
G00 X-3.0080 Y2.1533  
G01 Z-0.0070 F10    
G01 X-3.0080 Y2.0467  F20    
G01 X-3.0090 Y2.0402  
G01 X-3.0111 Y2.0339  
G01 X-3.0141 Y2.0280  
G01 X-3.0180 Y2.0226  
G01 X-3.0226 Y2.0180  
G01 X-3.0280 Y2.0141  
G01 X-3.0339 Y2.0111  
G01 X-3.0402 Y2.0090  
G01 X-3.0467 Y2.0080  
G01 X-3.0533 Y2.0080  
G01 X-3.0598 Y2.0090  
G01 X-3.0661 Y2.0111  
G01 X-3.0720 Y2.0141  
G01 X-3.0774 Y2.0180  
G01 X-3.0820 Y2.0226  
G01 X-3.0859 Y2.0280  
G01 X-3.0889 Y2.0339  
G01 X-3.0910 Y2.0402  
G01 X-3.0920 Y2.0467  
G01 X-3.0920 Y2.1533  
G01 X-3.0910 Y2.1598  
G01 X-3.0889 Y2.1661  
G01 X-3.0859 Y2.1720  
G01 X-3.0820 Y2.1774  
G01 X-3.0774 Y2.1820  
G01 X-3.0720 Y2.1859  
G01 X-3.0661 Y2.1889  
G01 X-3.0598 Y2.1910  
G01 X-3.0533 Y2.1920  
G01 X-3.0467 Y2.1920  
G01 X-3.0402 Y2.1910  
G01 X-3.0339 Y2.1889  
G01 X-3.0280 Y2.1859  
G01 X-3.0226 Y2.1820  
G01 X-3.0180 Y2.1774  
G01 X-3.0141 Y2.1720  
G01 X-3.0111 Y2.1661  
G01 X-3.0090 Y2.1598  
G01 X-3.0080 Y2.1533  
G00 Z0.1000  
G00 X-0.1214 Y1.6943  
G01 Z-0.0070 F10    
G01 X-0.1270 Y1.6903  F20    
G01 X-0.1332 Y1.6871  
G01 X-0.1397 Y1.6850  
G01 X-0.1465 Y1.6839  
G01 X-0.2055 Y1.6839  
G01 X-0.2229 Y1.6665  
G01 X-0.2284 Y1.6625  
G01 X-0.2346 Y1.6593  
G01 X-0.2412 Y1.6572  
G01 X-0.2480 Y1.6561  
G01 X-2.8035 Y1.6561  
G01 X-2.8103 Y1.6572  
G01 X-2.8168 Y1.6593  
G01 X-2.8230 Y1.6625  
G01 X-2.8286 Y1.6665  
G01 X-2.8335 Y1.6714  
G01 X-2.8508 Y1.6888  
G01 X-2.9579 Y1.6888  
G01 X-2.9648 Y1.6899  
G01 X-2.9713 Y1.6920  
G01 X-2.9775 Y1.6951  
G01 X-2.9831 Y1.6992  
G01 X-2.9880 Y1.7041  
G01 X-3.0479 Y1.7640  
G01 X-3.0528 Y1.7689  
G01 X-3.0568 Y1.7745  
G01 X-3.0600 Y1.7806  
G01 X-3.0621 Y1.7872  
G01 X-3.0632 Y1.7940  
G01 X-3.0632 Y1.9011  
G01 X-3.0682 Y1.9061  
G01 X-3.1535 Y1.9061  
G01 X-3.1603 Y1.9072  
G01 X-3.1668 Y1.9093  
G01 X-3.1730 Y1.9125  
G01 X-3.1786 Y1.9165  
G01 X-3.1835 Y1.9214  
G01 X-3.1911 Y1.9291  
G01 X-3.1952 Y1.9346  
G01 X-3.1983 Y1.9408  
G01 X-3.2004 Y1.9474  
G01 X-3.2015 Y1.9542  
G01 X-3.2015 Y2.6676  
G01 X-3.2004 Y2.6745  
G01 X-3.1983 Y2.6810  
G01 X-3.1952 Y2.6872  
G01 X-3.1911 Y2.6928  
G01 X-3.1862 Y2.6977  
G01 X-2.9053 Y2.9786  
G01 X-2.9004 Y2.9835  
G01 X-2.8948 Y2.9875  
G01 X-2.8887 Y2.9907  
G01 X-2.8821 Y2.9928  
G01 X-2.8753 Y2.9939  
G01 X-0.3465 Y2.9939  
G01 X-0.3397 Y2.9928  
G01 X-0.3332 Y2.9907  
G01 X-0.3270 Y2.9875  
G01 X-0.3214 Y2.9835  
G01 X-0.3165 Y2.9786  
G01 X-0.3125 Y2.9730  
G01 X-0.3093 Y2.9668  
G01 X-0.3075 Y2.9612  
G01 X-0.1921 Y2.9612  
G01 X-0.1852 Y2.9601  
G01 X-0.1788 Y2.9580  
G01 X-0.1786 Y2.9582  
G01 X-0.1709 Y2.9621  
G01 X-0.1628 Y2.9647  
G01 X-0.1543 Y2.9661  
G01 X-0.1073 Y2.9661  
G01 X-0.0988 Y2.9647  
G01 X-0.0907 Y2.9621  
G01 X-0.0830 Y2.9582  
G01 X-0.0761 Y2.9531  
G01 X-0.0700 Y2.9471  
G01 X-0.0084 Y2.8855  
G01 X-0.0034 Y2.8786  
G01 X0.0005  Y2.8709  
G01 X0.0032  Y2.8628  
G01 X0.0045  Y2.8543  
G01 X0.0045  Y2.5188  
G01 X0.0065  Y2.5148  
G01 X0.0092  Y2.5067  
G01 X0.0105  Y2.4982  
G01 X0.0105  Y2.4018  
G01 X0.0092  Y2.3933  
G01 X0.0065  Y2.3852  
G01 X0.0045  Y2.3812  
G01 X0.0045  Y2.2957  
G01 X0.0032  Y2.2872  
G01 X0.0005  Y2.2791  
G01 X-0.0034 Y2.2714  
G01 X-0.0061 Y2.2677  
G01 X-0.0061 Y1.8243  
G01 X-0.0072 Y1.8175  
G01 X-0.0093 Y1.8110  
G01 X-0.0125 Y1.8048  
G01 X-0.0165 Y1.7992  
G01 X-0.0214 Y1.7943  
G01 X-0.1214 Y1.6943  
G00 Z0.1000  
G00 X-1.5834 Y1.8384  
G01 Z-0.0070 F10    
G01 X-1.5834 Y1.8482  F20    
G01 X-1.5822 Y1.8579  
G01 X-1.5796 Y1.8674  
G01 X-1.5759 Y1.8765  
G01 X-1.5710 Y1.8849  
G01 X-1.5650 Y1.8927  
G01 X-1.5581 Y1.8996  
G01 X-1.5503 Y1.9056  
G01 X-1.5418 Y1.9105  
G01 X-1.5327 Y1.9143  
G01 X-1.5233 Y1.9168  
G01 X-1.5136 Y1.9181  
G01 X-1.5038 Y1.9181  
G01 X-1.4940 Y1.9168  
G01 X-1.4846 Y1.9143  
G01 X-1.4755 Y1.9105  
G01 X-1.4670 Y1.9056  
G01 X-1.4593 Y1.8996  
G01 X-1.4523 Y1.8927  
G01 X-1.4464 Y1.8849  
G01 X-1.4415 Y1.8765  
G01 X-1.4377 Y1.8674  
G01 X-1.4367 Y1.8635  
G01 X-1.4367 Y1.9298  
G01 X-1.4373 Y1.9304  
G01 X-1.4418 Y1.9366  
G01 X-1.4453 Y1.9434  
G01 X-1.4477 Y1.9508  
G01 X-1.4489 Y1.9584  
G01 X-1.4489 Y2.1160  
G01 X-1.4509 Y2.1188  
G01 X-1.4551 Y2.1272  
G01 X-1.4580 Y2.1361  
G01 X-1.4595 Y2.1453  
G01 X-1.4595 Y2.1547  
G01 X-1.4580 Y2.1639  
G01 X-1.4551 Y2.1728  
G01 X-1.4509 Y2.1812  
G01 X-1.4454 Y2.1888  
G01 X-1.4388 Y2.1954  
G01 X-1.4312 Y2.2009  
G01 X-1.4228 Y2.2051  
G01 X-1.4139 Y2.2080  
G01 X-1.4047 Y2.2095  
G01 X-1.3953 Y2.2095  
G01 X-1.3861 Y2.2080  
G01 X-1.3772 Y2.2051  
G01 X-1.3688 Y2.2009  
G01 X-1.3660 Y2.1989  
G01 X-1.2954 Y2.1989  
G01 X-1.2878 Y2.1977  
G01 X-1.2805 Y2.1953  
G01 X-1.2736 Y2.1918  
G01 X-1.2674 Y2.1873  
G01 X-1.2619 Y2.1818  
G01 X-1.2574 Y2.1756  
G01 X-1.2539 Y2.1688  
G01 X-1.2515 Y2.1614  
G01 X-1.2503 Y2.1538  
G01 X-1.2503 Y2.1462  
G01 X-1.2515 Y2.1386  
G01 X-1.2539 Y2.1312  
G01 X-1.2574 Y2.1244  
G01 X-1.2619 Y2.1182  
G01 X-1.2674 Y2.1127  
G01 X-1.2736 Y2.1082  
G01 X-1.2805 Y2.1047  
G01 X-1.2878 Y2.1023  
G01 X-1.2954 Y2.1011  
G01 X-1.3511 Y2.1011  
G01 X-1.3511 Y1.9824  
G01 X-1.3505 Y1.9818  
G01 X-1.3460 Y1.9756  
G01 X-1.3425 Y1.9688  
G01 X-1.3401 Y1.9614  
G01 X-1.3389 Y1.9538  
G01 X-1.3389 Y1.7489  
G01 X-0.7367 Y1.7489  
G01 X-0.7367 Y1.8231  
G01 X-0.7377 Y1.8192  
G01 X-0.7415 Y1.8102  
G01 X-0.7464 Y1.8017  
G01 X-0.7523 Y1.7939  
G01 X-0.7593 Y1.7870  
G01 X-0.7670 Y1.7810  
G01 X-0.7755 Y1.7761  
G01 X-0.7846 Y1.7723  
G01 X-0.7940 Y1.7698  
G01 X-0.8038 Y1.7685  
G01 X-0.8136 Y1.7685  
G01 X-0.8233 Y1.7698  
G01 X-0.8327 Y1.7723  
G01 X-0.8418 Y1.7761  
G01 X-0.8503 Y1.7810  
G01 X-0.8581 Y1.7870  
G01 X-0.8650 Y1.7939  
G01 X-0.8710 Y1.8017  
G01 X-0.8759 Y1.8102  
G01 X-0.8796 Y1.8192  
G01 X-0.8822 Y1.8287  
G01 X-0.8834 Y1.8384  
G01 X-0.8834 Y1.8482  
G01 X-0.8822 Y1.8579  
G01 X-0.8796 Y1.8674  
G01 X-0.8759 Y1.8765  
G01 X-0.8710 Y1.8849  
G01 X-0.8650 Y1.8927  
G01 X-0.8581 Y1.8996  
G01 X-0.8503 Y1.9056  
G01 X-0.8418 Y1.9105  
G01 X-0.8327 Y1.9143  
G01 X-0.8233 Y1.9168  
G01 X-0.8136 Y1.9181  
G01 X-0.8038 Y1.9181  
G01 X-0.7940 Y1.9168  
G01 X-0.7846 Y1.9143  
G01 X-0.7755 Y1.9105  
G01 X-0.7670 Y1.9056  
G01 X-0.7593 Y1.8996  
G01 X-0.7523 Y1.8927  
G01 X-0.7464 Y1.8849  
G01 X-0.7415 Y1.8765  
G01 X-0.7377 Y1.8674  
G01 X-0.7367 Y1.8635  
G01 X-0.7367 Y2.1153  
G01 X-0.7355 Y2.1229  
G01 X-0.7331 Y2.1302  
G01 X-0.7296 Y2.1370  
G01 X-0.7251 Y2.1433  
G01 X-0.7196 Y2.1487  
G01 X-0.6810 Y2.1873  
G01 X-0.6748 Y2.1918  
G01 X-0.6680 Y2.1953  
G01 X-0.6607 Y2.1977  
G01 X-0.6531 Y2.1989  
G01 X-0.6454 Y2.1989  
G01 X-0.6378 Y2.1977  
G01 X-0.6305 Y2.1953  
G01 X-0.6236 Y2.1918  
G01 X-0.6174 Y2.1873  
G01 X-0.6119 Y2.1818  
G01 X-0.6074 Y2.1756  
G01 X-0.6039 Y2.1688  
G01 X-0.6015 Y2.1614  
G01 X-0.6003 Y2.1538  
G01 X-0.6003 Y2.1462  
G01 X-0.6015 Y2.1386  
G01 X-0.6039 Y2.1312  
G01 X-0.6074 Y2.1244  
G01 X-0.6119 Y2.1182  
G01 X-0.6389 Y2.0912  
G01 X-0.6389 Y1.7580  
G01 X-0.6298 Y1.7489  
G01 X-0.3091 Y1.7489  
G01 X-0.3046 Y1.7496  
G01 X-0.2969 Y1.7496  
G01 X-0.2923 Y1.7489  
G01 X-0.2717 Y1.7489  
G01 X-0.2609 Y1.7596  
G01 X-0.2555 Y1.7651  
G01 X-0.2493 Y1.7696  
G01 X-0.2424 Y1.7731  
G01 X-0.2351 Y1.7755  
G01 X-0.2275 Y1.7767  
G01 X-0.1702 Y1.7767  
G01 X-0.0989 Y1.8480  
G01 X-0.0989 Y2.1820  
G01 X-0.1627 Y2.1182  
G01 X-0.1682 Y2.1127  
G01 X-0.1744 Y2.1082  
G01 X-0.1812 Y2.1047  
G01 X-0.1886 Y2.1023  
G01 X-0.1962 Y2.1011  
G01 X-0.3038 Y2.1011  
G01 X-0.3114 Y2.1023  
G01 X-0.3188 Y2.1047  
G01 X-0.3256 Y2.1082  
G01 X-0.3318 Y2.1127  
G01 X-0.3373 Y2.1182  
G01 X-0.3418 Y2.1244  
G01 X-0.3453 Y2.1312  
G01 X-0.3477 Y2.1386  
G01 X-0.3489 Y2.1462  
G01 X-0.3489 Y2.1554  
G01 X-0.3477 Y2.1630  
G01 X-0.3453 Y2.1703  
G01 X-0.3418 Y2.1772  
G01 X-0.3373 Y2.1834  
G01 X-0.3318 Y2.1889  
G01 X-0.3256 Y2.1934  
G01 X-0.3188 Y2.1969  
G01 X-0.3114 Y2.1992  
G01 X-0.3038 Y2.2004  
G01 X-0.2962 Y2.2004  
G01 X-0.2886 Y2.1992  
G01 X-0.2874 Y2.1989  
G01 X-0.2202 Y2.1989  
G01 X-0.1095 Y2.3096  
G01 X-0.1095 Y2.4048  
G01 X-0.1080 Y2.4140  
G01 X-0.1051 Y2.4229  
G01 X-0.1035 Y2.4262  
G01 X-0.1035 Y2.4738  
G01 X-0.1051 Y2.4771  
G01 X-0.1080 Y2.4860  
G01 X-0.1095 Y2.4952  
G01 X-0.1095 Y2.8254  
G01 X-0.1362 Y2.8521  
G01 X-0.1547 Y2.8521  
G01 X-0.1639 Y2.8535  
G01 X-0.1728 Y2.8564  
G01 X-0.1812 Y2.8607  
G01 X-0.1840 Y2.8627  
G01 X-0.1916 Y2.8627  
G01 X-0.1850 Y2.8561  
G01 X-0.1790 Y2.8483  
G01 X-0.1741 Y2.8398  
G01 X-0.1704 Y2.8308  
G01 X-0.1678 Y2.8213  
G01 X-0.1666 Y2.8116  
G01 X-0.1666 Y2.8018  
G01 X-0.1678 Y2.7921  
G01 X-0.1704 Y2.7826  
G01 X-0.1741 Y2.7735  
G01 X-0.1790 Y2.7651  
G01 X-0.1850 Y2.7573  
G01 X-0.1919 Y2.7504  
G01 X-0.1997 Y2.7444  
G01 X-0.2082 Y2.7395  
G01 X-0.2173 Y2.7357  
G01 X-0.2267 Y2.7332  
G01 X-0.2364 Y2.7319  
G01 X-0.2462 Y2.7319  
G01 X-0.2560 Y2.7332  
G01 X-0.2654 Y2.7357  
G01 X-0.2745 Y2.7395  
G01 X-0.2830 Y2.7444  
G01 X-0.2907 Y2.7504  
G01 X-0.2977 Y2.7573  
G01 X-0.3036 Y2.7651  
G01 X-0.3085 Y2.7735  
G01 X-0.3123 Y2.7826  
G01 X-0.3133 Y2.7865  
G01 X-0.3133 Y2.7202  
G01 X-0.3127 Y2.7196  
G01 X-0.3082 Y2.7134  
G01 X-0.3047 Y2.7066  
G01 X-0.3023 Y2.6992  
G01 X-0.3011 Y2.6916  
G01 X-0.3011 Y2.5340  
G01 X-0.2991 Y2.5312  
G01 X-0.2949 Y2.5228  
G01 X-0.2920 Y2.5139  
G01 X-0.2905 Y2.5047  
G01 X-0.2905 Y2.4953  
G01 X-0.2920 Y2.4861  
G01 X-0.2949 Y2.4772  
G01 X-0.2991 Y2.4688  
G01 X-0.3046 Y2.4612  
G01 X-0.3112 Y2.4546  
G01 X-0.3188 Y2.4491  
G01 X-0.3272 Y2.4449  
G01 X-0.3361 Y2.4420  
G01 X-0.3453 Y2.4405  
G01 X-0.3547 Y2.4405  
G01 X-0.3639 Y2.4420  
G01 X-0.3728 Y2.4449  
G01 X-0.3812 Y2.4491  
G01 X-0.3840 Y2.4511  
G01 X-0.4546 Y2.4511  
G01 X-0.4622 Y2.4523  
G01 X-0.4695 Y2.4547  
G01 X-0.4764 Y2.4582  
G01 X-0.4826 Y2.4627  
G01 X-0.4881 Y2.4682  
G01 X-0.4926 Y2.4744  
G01 X-0.4961 Y2.4812  
G01 X-0.4985 Y2.4886  
G01 X-0.4997 Y2.4962  
G01 X-0.4997 Y2.5038  
G01 X-0.4985 Y2.5114  
G01 X-0.4961 Y2.5188  
G01 X-0.4926 Y2.5256  
G01 X-0.4881 Y2.5318  
G01 X-0.4826 Y2.5373  
G01 X-0.4764 Y2.5418  
G01 X-0.4695 Y2.5453  
G01 X-0.4622 Y2.5477  
G01 X-0.4546 Y2.5489  
G01 X-0.3989 Y2.5489  
G01 X-0.3989 Y2.6676  
G01 X-0.3995 Y2.6682  
G01 X-0.4040 Y2.6744  
G01 X-0.4075 Y2.6812  
G01 X-0.4099 Y2.6886  
G01 X-0.4111 Y2.6962  
G01 X-0.4111 Y2.8916  
G01 X-0.4099 Y2.8992  
G01 X-0.4093 Y2.9011  
G01 X-1.0133 Y2.9011  
G01 X-1.0133 Y2.8269  
G01 X-1.0123 Y2.8308  
G01 X-1.0085 Y2.8398  
G01 X-1.0036 Y2.8483  
G01 X-0.9977 Y2.8561  
G01 X-0.9907 Y2.8630  
G01 X-0.9830 Y2.8690  
G01 X-0.9745 Y2.8739  
G01 X-0.9654 Y2.8777  
G01 X-0.9560 Y2.8802  
G01 X-0.9462 Y2.8815  
G01 X-0.9364 Y2.8815  
G01 X-0.9267 Y2.8802  
G01 X-0.9173 Y2.8777  
G01 X-0.9082 Y2.8739  
G01 X-0.8997 Y2.8690  
G01 X-0.8919 Y2.8630  
G01 X-0.8850 Y2.8561  
G01 X-0.8790 Y2.8483  
G01 X-0.8741 Y2.8398  
G01 X-0.8704 Y2.8308  
G01 X-0.8678 Y2.8213  
G01 X-0.8666 Y2.8116  
G01 X-0.8666 Y2.8018  
G01 X-0.8678 Y2.7921  
G01 X-0.8704 Y2.7826  
G01 X-0.8741 Y2.7735  
G01 X-0.8790 Y2.7651  
G01 X-0.8850 Y2.7573  
G01 X-0.8919 Y2.7504  
G01 X-0.8997 Y2.7444  
G01 X-0.9082 Y2.7395  
G01 X-0.9173 Y2.7357  
G01 X-0.9267 Y2.7332  
G01 X-0.9364 Y2.7319  
G01 X-0.9462 Y2.7319  
G01 X-0.9560 Y2.7332  
G01 X-0.9654 Y2.7357  
G01 X-0.9745 Y2.7395  
G01 X-0.9830 Y2.7444  
G01 X-0.9907 Y2.7504  
G01 X-0.9977 Y2.7573  
G01 X-1.0036 Y2.7651  
G01 X-1.0085 Y2.7735  
G01 X-1.0123 Y2.7826  
G01 X-1.0133 Y2.7865  
G01 X-1.0133 Y2.7202  
G01 X-1.0127 Y2.7196  
G01 X-1.0082 Y2.7134  
G01 X-1.0047 Y2.7066  
G01 X-1.0023 Y2.6992  
G01 X-1.0011 Y2.6916  
G01 X-1.0011 Y2.5340  
G01 X-0.9991 Y2.5312  
G01 X-0.9949 Y2.5228  
G01 X-0.9920 Y2.5139  
G01 X-0.9905 Y2.5047  
G01 X-0.9905 Y2.4953  
G01 X-0.9920 Y2.4861  
G01 X-0.9949 Y2.4772  
G01 X-0.9991 Y2.4688  
G01 X-1.0046 Y2.4612  
G01 X-1.0112 Y2.4546  
G01 X-1.0188 Y2.4491  
G01 X-1.0272 Y2.4449  
G01 X-1.0361 Y2.4420  
G01 X-1.0453 Y2.4405  
G01 X-1.0547 Y2.4405  
G01 X-1.0639 Y2.4420  
G01 X-1.0728 Y2.4449  
G01 X-1.0812 Y2.4491  
G01 X-1.0840 Y2.4511  
G01 X-1.1546 Y2.4511  
G01 X-1.1622 Y2.4523  
G01 X-1.1695 Y2.4547  
G01 X-1.1764 Y2.4582  
G01 X-1.1826 Y2.4627  
G01 X-1.1881 Y2.4682  
G01 X-1.1926 Y2.4744  
G01 X-1.1961 Y2.4812  
G01 X-1.1985 Y2.4886  
G01 X-1.1997 Y2.4962  
G01 X-1.1997 Y2.5038  
G01 X-1.1985 Y2.5114  
G01 X-1.1961 Y2.5188  
G01 X-1.1926 Y2.5256  
G01 X-1.1881 Y2.5318  
G01 X-1.1826 Y2.5373  
G01 X-1.1764 Y2.5418  
G01 X-1.1695 Y2.5453  
G01 X-1.1622 Y2.5477  
G01 X-1.1546 Y2.5489  
G01 X-1.0989 Y2.5489  
G01 X-1.0989 Y2.6676  
G01 X-1.0995 Y2.6682  
G01 X-1.1040 Y2.6744  
G01 X-1.1075 Y2.6812  
G01 X-1.1099 Y2.6886  
G01 X-1.1111 Y2.6962  
G01 X-1.1111 Y2.8920  
G01 X-1.1202 Y2.9011  
G01 X-1.7133 Y2.9011  
G01 X-1.7133 Y2.8269  
G01 X-1.7123 Y2.8308  
G01 X-1.7085 Y2.8398  
G01 X-1.7036 Y2.8483  
G01 X-1.6977 Y2.8561  
G01 X-1.6907 Y2.8630  
G01 X-1.6830 Y2.8690  
G01 X-1.6745 Y2.8739  
G01 X-1.6654 Y2.8777  
G01 X-1.6560 Y2.8802  
G01 X-1.6462 Y2.8815  
G01 X-1.6364 Y2.8815  
G01 X-1.6267 Y2.8802  
G01 X-1.6173 Y2.8777  
G01 X-1.6082 Y2.8739  
G01 X-1.5997 Y2.8690  
G01 X-1.5919 Y2.8630  
G01 X-1.5850 Y2.8561  
G01 X-1.5790 Y2.8483  
G01 X-1.5741 Y2.8398  
G01 X-1.5704 Y2.8308  
G01 X-1.5678 Y2.8213  
G01 X-1.5666 Y2.8116  
G01 X-1.5666 Y2.8018  
G01 X-1.5678 Y2.7921  
G01 X-1.5704 Y2.7826  
G01 X-1.5741 Y2.7735  
G01 X-1.5790 Y2.7651  
G01 X-1.5850 Y2.7573  
G01 X-1.5919 Y2.7504  
G01 X-1.5997 Y2.7444  
G01 X-1.6082 Y2.7395  
G01 X-1.6173 Y2.7357  
G01 X-1.6267 Y2.7332  
G01 X-1.6364 Y2.7319  
G01 X-1.6462 Y2.7319  
G01 X-1.6560 Y2.7332  
G01 X-1.6654 Y2.7357  
G01 X-1.6745 Y2.7395  
G01 X-1.6830 Y2.7444  
G01 X-1.6907 Y2.7504  
G01 X-1.6977 Y2.7573  
G01 X-1.7036 Y2.7651  
G01 X-1.7085 Y2.7735  
G01 X-1.7123 Y2.7826  
G01 X-1.7133 Y2.7865  
G01 X-1.7133 Y2.7202  
G01 X-1.7127 Y2.7196  
G01 X-1.7082 Y2.7134  
G01 X-1.7047 Y2.7066  
G01 X-1.7023 Y2.6992  
G01 X-1.7011 Y2.6916  
G01 X-1.7011 Y2.5340  
G01 X-1.6991 Y2.5312  
G01 X-1.6949 Y2.5228  
G01 X-1.6920 Y2.5139  
G01 X-1.6905 Y2.5047  
G01 X-1.6905 Y2.4953  
G01 X-1.6920 Y2.4861  
G01 X-1.6949 Y2.4772  
G01 X-1.6991 Y2.4688  
G01 X-1.7046 Y2.4612  
G01 X-1.7112 Y2.4546  
G01 X-1.7188 Y2.4491  
G01 X-1.7272 Y2.4449  
G01 X-1.7361 Y2.4420  
G01 X-1.7453 Y2.4405  
G01 X-1.7547 Y2.4405  
G01 X-1.7639 Y2.4420  
G01 X-1.7728 Y2.4449  
G01 X-1.7812 Y2.4491  
G01 X-1.7840 Y2.4511  
G01 X-1.8546 Y2.4511  
G01 X-1.8622 Y2.4523  
G01 X-1.8695 Y2.4547  
G01 X-1.8764 Y2.4582  
G01 X-1.8826 Y2.4627  
G01 X-1.8881 Y2.4682  
G01 X-1.8926 Y2.4744  
G01 X-1.8961 Y2.4812  
G01 X-1.8985 Y2.4886  
G01 X-1.8997 Y2.4962  
G01 X-1.8997 Y2.5038  
G01 X-1.8985 Y2.5114  
G01 X-1.8961 Y2.5188  
G01 X-1.8926 Y2.5256  
G01 X-1.8881 Y2.5318  
G01 X-1.8826 Y2.5373  
G01 X-1.8764 Y2.5418  
G01 X-1.8695 Y2.5453  
G01 X-1.8622 Y2.5477  
G01 X-1.8546 Y2.5489  
G01 X-1.7989 Y2.5489  
G01 X-1.7989 Y2.6676  
G01 X-1.7995 Y2.6682  
G01 X-1.8040 Y2.6744  
G01 X-1.8075 Y2.6812  
G01 X-1.8099 Y2.6886  
G01 X-1.8111 Y2.6962  
G01 X-1.8111 Y2.8920  
G01 X-1.8202 Y2.9011  
G01 X-2.4133 Y2.9011  
G01 X-2.4133 Y2.8269  
G01 X-2.4123 Y2.8308  
G01 X-2.4085 Y2.8398  
G01 X-2.4036 Y2.8483  
G01 X-2.3977 Y2.8561  
G01 X-2.3907 Y2.8630  
G01 X-2.3830 Y2.8690  
G01 X-2.3745 Y2.8739  
G01 X-2.3654 Y2.8777  
G01 X-2.3560 Y2.8802  
G01 X-2.3462 Y2.8815  
G01 X-2.3364 Y2.8815  
G01 X-2.3267 Y2.8802  
G01 X-2.3173 Y2.8777  
G01 X-2.3082 Y2.8739  
G01 X-2.2997 Y2.8690  
G01 X-2.2919 Y2.8630  
G01 X-2.2850 Y2.8561  
G01 X-2.2790 Y2.8483  
G01 X-2.2741 Y2.8398  
G01 X-2.2704 Y2.8308  
G01 X-2.2678 Y2.8213  
G01 X-2.2666 Y2.8116  
G01 X-2.2666 Y2.8018  
G01 X-2.2678 Y2.7921  
G01 X-2.2704 Y2.7826  
G01 X-2.2741 Y2.7735  
G01 X-2.2790 Y2.7651  
G01 X-2.2850 Y2.7573  
G01 X-2.2919 Y2.7504  
G01 X-2.2997 Y2.7444  
G01 X-2.3082 Y2.7395  
G01 X-2.3173 Y2.7357  
G01 X-2.3267 Y2.7332  
G01 X-2.3364 Y2.7319  
G01 X-2.3462 Y2.7319  
G01 X-2.3560 Y2.7332  
G01 X-2.3654 Y2.7357  
G01 X-2.3745 Y2.7395  
G01 X-2.3830 Y2.7444  
G01 X-2.3907 Y2.7504  
G01 X-2.3977 Y2.7573  
G01 X-2.4036 Y2.7651  
G01 X-2.4085 Y2.7735  
G01 X-2.4123 Y2.7826  
G01 X-2.4133 Y2.7865  
G01 X-2.4133 Y2.7202  
G01 X-2.4127 Y2.7196  
G01 X-2.4082 Y2.7134  
G01 X-2.4047 Y2.7066  
G01 X-2.4023 Y2.6992  
G01 X-2.4011 Y2.6916  
G01 X-2.4011 Y2.5340  
G01 X-2.3991 Y2.5312  
G01 X-2.3949 Y2.5228  
G01 X-2.3920 Y2.5139  
G01 X-2.3905 Y2.5047  
G01 X-2.3905 Y2.4953  
G01 X-2.3920 Y2.4861  
G01 X-2.3949 Y2.4772  
G01 X-2.3991 Y2.4688  
G01 X-2.4046 Y2.4612  
G01 X-2.4112 Y2.4546  
G01 X-2.4188 Y2.4491  
G01 X-2.4272 Y2.4449  
G01 X-2.4361 Y2.4420  
G01 X-2.4453 Y2.4405  
G01 X-2.4547 Y2.4405  
G01 X-2.4639 Y2.4420  
G01 X-2.4728 Y2.4449  
G01 X-2.4812 Y2.4491  
G01 X-2.4840 Y2.4511  
G01 X-2.5546 Y2.4511  
G01 X-2.5622 Y2.4523  
G01 X-2.5695 Y2.4547  
G01 X-2.5764 Y2.4582  
G01 X-2.5826 Y2.4627  
G01 X-2.5881 Y2.4682  
G01 X-2.5926 Y2.4744  
G01 X-2.5961 Y2.4812  
G01 X-2.5985 Y2.4886  
G01 X-2.5997 Y2.4962  
G01 X-2.5997 Y2.5038  
G01 X-2.5985 Y2.5114  
G01 X-2.5961 Y2.5188  
G01 X-2.5926 Y2.5256  
G01 X-2.5881 Y2.5318  
G01 X-2.5826 Y2.5373  
G01 X-2.5764 Y2.5418  
G01 X-2.5695 Y2.5453  
G01 X-2.5622 Y2.5477  
G01 X-2.5546 Y2.5489  
G01 X-2.4989 Y2.5489  
G01 X-2.4989 Y2.6676  
G01 X-2.4995 Y2.6682  
G01 X-2.5040 Y2.6744  
G01 X-2.5075 Y2.6812  
G01 X-2.5099 Y2.6886  
G01 X-2.5111 Y2.6962  
G01 X-2.5111 Y2.9011  
G01 X-2.8516 Y2.9011  
G01 X-2.8724 Y2.8803  
G01 X-2.8636 Y2.8815  
G01 X-2.8538 Y2.8815  
G01 X-2.8440 Y2.8802  
G01 X-2.8346 Y2.8777  
G01 X-2.8255 Y2.8739  
G01 X-2.8170 Y2.8690  
G01 X-2.8093 Y2.8630  
G01 X-2.8023 Y2.8561  
G01 X-2.7964 Y2.8483  
G01 X-2.7915 Y2.8398  
G01 X-2.7877 Y2.8308  
G01 X-2.7852 Y2.8213  
G01 X-2.7839 Y2.8116  
G01 X-2.7839 Y2.8018  
G01 X-2.7852 Y2.7921  
G01 X-2.7877 Y2.7826  
G01 X-2.7915 Y2.7735  
G01 X-2.7964 Y2.7651  
G01 X-2.8023 Y2.7573  
G01 X-2.8093 Y2.7504  
G01 X-2.8170 Y2.7444  
G01 X-2.8255 Y2.7395  
G01 X-2.8346 Y2.7357  
G01 X-2.8440 Y2.7332  
G01 X-2.8538 Y2.7319  
G01 X-2.8636 Y2.7319  
G01 X-2.8733 Y2.7332  
G01 X-2.8827 Y2.7357  
G01 X-2.8918 Y2.7395  
G01 X-2.9003 Y2.7444  
G01 X-2.9081 Y2.7504  
G01 X-2.9150 Y2.7573  
G01 X-2.9210 Y2.7651  
G01 X-2.9259 Y2.7735  
G01 X-2.9296 Y2.7826  
G01 X-2.9322 Y2.7921  
G01 X-2.9334 Y2.8018  
G01 X-2.9334 Y2.8116  
G01 X-2.9323 Y2.8204  
G01 X-3.1088 Y2.6440  
G01 X-3.1088 Y2.3202  
G01 X-3.0874 Y2.2989  
G01 X-2.8946 Y2.2989  
G01 X-2.8870 Y2.2977  
G01 X-2.8797 Y2.2953  
G01 X-2.8728 Y2.2918  
G01 X-2.8666 Y2.2873  
G01 X-2.8611 Y2.2818  
G01 X-2.7627 Y2.1834  
G01 X-2.7582 Y2.1772  
G01 X-2.7547 Y2.1703  
G01 X-2.7523 Y2.1630  
G01 X-2.7511 Y2.1554  
G01 X-2.7511 Y2.1477  
G01 X-2.7523 Y2.1401  
G01 X-2.7547 Y2.1328  
G01 X-2.7582 Y2.1260  
G01 X-2.7627 Y2.1197  
G01 X-2.7682 Y2.1143  
G01 X-2.7744 Y2.1098  
G01 X-2.7812 Y2.1063  
G01 X-2.7886 Y2.1039  
G01 X-2.7962 Y2.1027  
G01 X-2.8038 Y2.1027  
G01 X-2.8114 Y2.1039  
G01 X-2.8188 Y2.1063  
G01 X-2.8256 Y2.1098  
G01 X-2.8318 Y2.1143  
G01 X-2.9187 Y2.2011  
G01 X-3.1088 Y2.2011  
G01 X-3.1088 Y1.9989  
G01 X-3.0462 Y1.9989  
G01 X-3.0386 Y1.9977  
G01 X-3.0312 Y1.9953  
G01 X-3.0244 Y1.9918  
G01 X-3.0182 Y1.9873  
G01 X-2.9875 Y1.9566  
G01 X-2.9820 Y1.9511  
G01 X-2.9775 Y1.9449  
G01 X-2.9740 Y1.9381  
G01 X-2.9716 Y1.9308  
G01 X-2.9704 Y1.9232  
G01 X-2.9704 Y1.8856  
G01 X-2.9650 Y1.8927  
G01 X-2.9581 Y1.8996  
G01 X-2.9503 Y1.9056  
G01 X-2.9418 Y1.9105  
G01 X-2.9327 Y1.9143  
G01 X-2.9233 Y1.9168  
G01 X-2.9136 Y1.9181  
G01 X-2.9038 Y1.9181  
G01 X-2.8940 Y1.9168  
G01 X-2.8846 Y1.9143  
G01 X-2.8755 Y1.9105  
G01 X-2.8670 Y1.9056  
G01 X-2.8593 Y1.8996  
G01 X-2.8523 Y1.8927  
G01 X-2.8464 Y1.8849  
G01 X-2.8415 Y1.8765  
G01 X-2.8377 Y1.8674  
G01 X-2.8367 Y1.8635  
G01 X-2.8367 Y1.9298  
G01 X-2.8373 Y1.9304  
G01 X-2.8418 Y1.9366  
G01 X-2.8453 Y1.9434  
G01 X-2.8477 Y1.9508  
G01 X-2.8489 Y1.9584  
G01 X-2.8489 Y2.0538  
G01 X-2.8477 Y2.0614  
G01 X-2.8453 Y2.0688  
G01 X-2.8418 Y2.0756  
G01 X-2.8373 Y2.0818  
G01 X-2.8318 Y2.0873  
G01 X-2.8256 Y2.0918  
G01 X-2.8188 Y2.0953  
G01 X-2.8114 Y2.0977  
G01 X-2.8038 Y2.0989  
G01 X-2.6702 Y2.0989  
G01 X-2.5818 Y2.1873  
G01 X-2.5756 Y2.1918  
G01 X-2.5688 Y2.1953  
G01 X-2.5614 Y2.1977  
G01 X-2.5538 Y2.1989  
G01 X-2.5454 Y2.1989  
G01 X-2.5378 Y2.1977  
G01 X-2.5305 Y2.1953  
G01 X-2.5236 Y2.1918  
G01 X-2.5174 Y2.1873  
G01 X-2.5119 Y2.1818  
G01 X-2.5074 Y2.1756  
G01 X-2.5039 Y2.1688  
G01 X-2.5015 Y2.1614  
G01 X-2.5003 Y2.1538  
G01 X-2.5003 Y2.1462  
G01 X-2.5015 Y2.1386  
G01 X-2.5039 Y2.1312  
G01 X-2.5074 Y2.1244  
G01 X-2.5119 Y2.1182  
G01 X-2.5174 Y2.1127  
G01 X-2.5203 Y2.1106  
G01 X-2.6127 Y2.0182  
G01 X-2.6182 Y2.0127  
G01 X-2.6244 Y2.0082  
G01 X-2.6312 Y2.0047  
G01 X-2.6386 Y2.0023  
G01 X-2.6462 Y2.0011  
G01 X-2.7511 Y2.0011  
G01 X-2.7511 Y1.9824  
G01 X-2.7505 Y1.9818  
G01 X-2.7460 Y1.9756  
G01 X-2.7425 Y1.9688  
G01 X-2.7401 Y1.9614  
G01 X-2.7389 Y1.9538  
G01 X-2.7389 Y1.7737  
G01 X-2.7401 Y1.7661  
G01 X-2.7425 Y1.7588  
G01 X-2.7460 Y1.7519  
G01 X-2.7482 Y1.7489  
G01 X-2.1367 Y1.7489  
G01 X-2.1367 Y1.8231  
G01 X-2.1377 Y1.8192  
G01 X-2.1415 Y1.8102  
G01 X-2.1464 Y1.8017  
G01 X-2.1523 Y1.7939  
G01 X-2.1593 Y1.7870  
G01 X-2.1670 Y1.7810  
G01 X-2.1755 Y1.7761  
G01 X-2.1846 Y1.7723  
G01 X-2.1940 Y1.7698  
G01 X-2.2038 Y1.7685  
G01 X-2.2136 Y1.7685  
G01 X-2.2233 Y1.7698  
G01 X-2.2327 Y1.7723  
G01 X-2.2418 Y1.7761  
G01 X-2.2503 Y1.7810  
G01 X-2.2581 Y1.7870  
G01 X-2.2650 Y1.7939  
G01 X-2.2710 Y1.8017  
G01 X-2.2759 Y1.8102  
G01 X-2.2796 Y1.8192  
G01 X-2.2822 Y1.8287  
G01 X-2.2834 Y1.8384  
G01 X-2.2834 Y1.8482  
G01 X-2.2822 Y1.8579  
G01 X-2.2796 Y1.8674  
G01 X-2.2759 Y1.8765  
G01 X-2.2710 Y1.8849  
G01 X-2.2650 Y1.8927  
G01 X-2.2581 Y1.8996  
G01 X-2.2503 Y1.9056  
G01 X-2.2418 Y1.9105  
G01 X-2.2327 Y1.9143  
G01 X-2.2233 Y1.9168  
G01 X-2.2136 Y1.9181  
G01 X-2.2038 Y1.9181  
G01 X-2.1940 Y1.9168  
G01 X-2.1846 Y1.9143  
G01 X-2.1755 Y1.9105  
G01 X-2.1670 Y1.9056  
G01 X-2.1593 Y1.8996  
G01 X-2.1523 Y1.8927  
G01 X-2.1464 Y1.8849  
G01 X-2.1415 Y1.8765  
G01 X-2.1377 Y1.8674  
G01 X-2.1367 Y1.8635  
G01 X-2.1367 Y2.1031  
G01 X-2.1388 Y2.1046  
G01 X-2.1454 Y2.1112  
G01 X-2.1509 Y2.1188  
G01 X-2.1551 Y2.1272  
G01 X-2.1580 Y2.1361  
G01 X-2.1595 Y2.1453  
G01 X-2.1595 Y2.1547  
G01 X-2.1580 Y2.1639  
G01 X-2.1551 Y2.1728  
G01 X-2.1509 Y2.1812  
G01 X-2.1454 Y2.1888  
G01 X-2.1388 Y2.1954  
G01 X-2.1312 Y2.2009  
G01 X-2.1228 Y2.2051  
G01 X-2.1139 Y2.2080  
G01 X-2.1047 Y2.2095  
G01 X-2.0953 Y2.2095  
G01 X-2.0861 Y2.2080  
G01 X-2.0772 Y2.2051  
G01 X-2.0688 Y2.2009  
G01 X-2.0660 Y2.1989  
G01 X-1.9954 Y2.1989  
G01 X-1.9878 Y2.1977  
G01 X-1.9805 Y2.1953  
G01 X-1.9736 Y2.1918  
G01 X-1.9674 Y2.1873  
G01 X-1.9619 Y2.1818  
G01 X-1.9574 Y2.1756  
G01 X-1.9539 Y2.1688  
G01 X-1.9515 Y2.1614  
G01 X-1.9503 Y2.1538  
G01 X-1.9503 Y2.1462  
G01 X-1.9515 Y2.1386  
G01 X-1.9539 Y2.1312  
G01 X-1.9574 Y2.1244  
G01 X-1.9619 Y2.1182  
G01 X-1.9674 Y2.1127  
G01 X-1.9736 Y2.1082  
G01 X-1.9805 Y2.1047  
G01 X-1.9878 Y2.1023  
G01 X-1.9954 Y2.1011  
G01 X-2.0389 Y2.1011  
G01 X-2.0389 Y1.7580  
G01 X-2.0298 Y1.7489  
G01 X-1.4367 Y1.7489  
G01 X-1.4367 Y1.8231  
G01 X-1.4377 Y1.8192  
G01 X-1.4415 Y1.8102  
G01 X-1.4464 Y1.8017  
G01 X-1.4523 Y1.7939  
G01 X-1.4593 Y1.7870  
G01 X-1.4670 Y1.7810  
G01 X-1.4755 Y1.7761  
G01 X-1.4846 Y1.7723  
G01 X-1.4940 Y1.7698  
G01 X-1.5038 Y1.7685  
G01 X-1.5136 Y1.7685  
G01 X-1.5233 Y1.7698  
G01 X-1.5327 Y1.7723  
G01 X-1.5418 Y1.7761  
G01 X-1.5503 Y1.7810  
G01 X-1.5581 Y1.7870  
G01 X-1.5650 Y1.7939  
G01 X-1.5710 Y1.8017  
G01 X-1.5759 Y1.8102  
G01 X-1.5796 Y1.8192  
G01 X-1.5822 Y1.8287  
G01 X-1.5834 Y1.8384  
G00 Z0.1000  
G00 X-0.8334 Y2.8018  
G01 Z-0.0070 F10    
G01 X-0.8334 Y2.8116  F20    
G01 X-0.8322 Y2.8213  
G01 X-0.8296 Y2.8308  
G01 X-0.8259 Y2.8398  
G01 X-0.8210 Y2.8483  
G01 X-0.8150 Y2.8561  
G01 X-0.8081 Y2.8630  
G01 X-0.8003 Y2.8690  
G01 X-0.7918 Y2.8739  
G01 X-0.7827 Y2.8777  
G01 X-0.7733 Y2.8802  
G01 X-0.7636 Y2.8815  
G01 X-0.7538 Y2.8815  
G01 X-0.7440 Y2.8802  
G01 X-0.7346 Y2.8777  
G01 X-0.7255 Y2.8739  
G01 X-0.7170 Y2.8690  
G01 X-0.7093 Y2.8630  
G01 X-0.7023 Y2.8561  
G01 X-0.6964 Y2.8483  
G01 X-0.6915 Y2.8398  
G01 X-0.6877 Y2.8308  
G01 X-0.6852 Y2.8213  
G01 X-0.6839 Y2.8116  
G01 X-0.6839 Y2.8018  
G01 X-0.6852 Y2.7921  
G01 X-0.6877 Y2.7826  
G01 X-0.6915 Y2.7735  
G01 X-0.6964 Y2.7651  
G01 X-0.7023 Y2.7573  
G01 X-0.7093 Y2.7504  
G01 X-0.7170 Y2.7444  
G01 X-0.7255 Y2.7395  
G01 X-0.7346 Y2.7357  
G01 X-0.7440 Y2.7332  
G01 X-0.7538 Y2.7319  
G01 X-0.7636 Y2.7319  
G01 X-0.7733 Y2.7332  
G01 X-0.7827 Y2.7357  
G01 X-0.7918 Y2.7395  
G01 X-0.8003 Y2.7444  
G01 X-0.8081 Y2.7504  
G01 X-0.8150 Y2.7573  
G01 X-0.8210 Y2.7651  
G01 X-0.8259 Y2.7735  
G01 X-0.8296 Y2.7826  
G01 X-0.8322 Y2.7921  
G01 X-0.8334 Y2.8018  
G00 Z0.1000  
G00 X-0.5766 Y2.6963  
G01 Z-0.0070 F10    
G01 X-0.5766 Y2.7037  F20    
G01 X-0.5752 Y2.7109  
G01 X-0.5724 Y2.7176  
G01 X-0.5683 Y2.7237  
G01 X-0.5631 Y2.7289  
G01 X-0.5570 Y2.7330  
G01 X-0.5502 Y2.7358  
G01 X-0.5430 Y2.7372  
G01 X-0.5357 Y2.7372  
G01 X-0.5285 Y2.7358  
G01 X-0.5217 Y2.7330  
G01 X-0.5156 Y2.7289  
G01 X-0.5105 Y2.7237  
G01 X-0.5064 Y2.7176  
G01 X-0.5036 Y2.7109  
G01 X-0.5022 Y2.7037  
G01 X-0.5022 Y2.6963  
G01 X-0.5036 Y2.6891  
G01 X-0.5064 Y2.6824  
G01 X-0.5105 Y2.6763  
G01 X-0.5156 Y2.6711  
G01 X-0.5217 Y2.6670  
G01 X-0.5285 Y2.6642  
G01 X-0.5357 Y2.6628  
G01 X-0.5430 Y2.6628  
G01 X-0.5502 Y2.6642  
G01 X-0.5570 Y2.6670  
G01 X-0.5631 Y2.6711  
G01 X-0.5683 Y2.6763  
G01 X-0.5724 Y2.6824  
G01 X-0.5752 Y2.6891  
G01 X-0.5766 Y2.6963  
G00 Z0.1000  
G00 X-0.4978 Y2.6963  
G01 Z-0.0070 F10    
G01 X-0.4978 Y2.7037  F20    
G01 X-0.4964 Y2.7109  
G01 X-0.4936 Y2.7176  
G01 X-0.4895 Y2.7237  
G01 X-0.4844 Y2.7289  
G01 X-0.4783 Y2.7330  
G01 X-0.4715 Y2.7358  
G01 X-0.4643 Y2.7372  
G01 X-0.4570 Y2.7372  
G01 X-0.4498 Y2.7358  
G01 X-0.4430 Y2.7330  
G01 X-0.4369 Y2.7289  
G01 X-0.4317 Y2.7237  
G01 X-0.4276 Y2.7176  
G01 X-0.4248 Y2.7109  
G01 X-0.4234 Y2.7037  
G01 X-0.4234 Y2.6963  
G01 X-0.4248 Y2.6891  
G01 X-0.4276 Y2.6824  
G01 X-0.4317 Y2.6763  
G01 X-0.4369 Y2.6711  
G01 X-0.4430 Y2.6670  
G01 X-0.4498 Y2.6642  
G01 X-0.4570 Y2.6628  
G01 X-0.4643 Y2.6628  
G01 X-0.4715 Y2.6642  
G01 X-0.4783 Y2.6670  
G01 X-0.4844 Y2.6711  
G01 X-0.4895 Y2.6763  
G01 X-0.4936 Y2.6824  
G01 X-0.4964 Y2.6891  
G01 X-0.4978 Y2.6963  
G00 Z0.1000  
G00 X-1.5334 Y2.8018  
G01 Z-0.0070 F10    
G01 X-1.5334 Y2.8116  F20    
G01 X-1.5322 Y2.8213  
G01 X-1.5296 Y2.8308  
G01 X-1.5259 Y2.8398  
G01 X-1.5210 Y2.8483  
G01 X-1.5150 Y2.8561  
G01 X-1.5081 Y2.8630  
G01 X-1.5003 Y2.8690  
G01 X-1.4918 Y2.8739  
G01 X-1.4827 Y2.8777  
G01 X-1.4733 Y2.8802  
G01 X-1.4636 Y2.8815  
G01 X-1.4538 Y2.8815  
G01 X-1.4440 Y2.8802  
G01 X-1.4346 Y2.8777  
G01 X-1.4255 Y2.8739  
G01 X-1.4170 Y2.8690  
G01 X-1.4093 Y2.8630  
G01 X-1.4023 Y2.8561  
G01 X-1.3964 Y2.8483  
G01 X-1.3915 Y2.8398  
G01 X-1.3877 Y2.8308  
G01 X-1.3852 Y2.8213  
G01 X-1.3839 Y2.8116  
G01 X-1.3839 Y2.8018  
G01 X-1.3852 Y2.7921  
G01 X-1.3877 Y2.7826  
G01 X-1.3915 Y2.7735  
G01 X-1.3964 Y2.7651  
G01 X-1.4023 Y2.7573  
G01 X-1.4093 Y2.7504  
G01 X-1.4170 Y2.7444  
G01 X-1.4255 Y2.7395  
G01 X-1.4346 Y2.7357  
G01 X-1.4440 Y2.7332  
G01 X-1.4538 Y2.7319  
G01 X-1.4636 Y2.7319  
G01 X-1.4733 Y2.7332  
G01 X-1.4827 Y2.7357  
G01 X-1.4918 Y2.7395  
G01 X-1.5003 Y2.7444  
G01 X-1.5081 Y2.7504  
G01 X-1.5150 Y2.7573  
G01 X-1.5210 Y2.7651  
G01 X-1.5259 Y2.7735  
G01 X-1.5296 Y2.7826  
G01 X-1.5322 Y2.7921  
G01 X-1.5334 Y2.8018  
G00 Z0.1000  
G00 X-1.2766 Y2.6963  
G01 Z-0.0070 F10    
G01 X-1.2766 Y2.7037  F20    
G01 X-1.2752 Y2.7109  
G01 X-1.2724 Y2.7176  
G01 X-1.2683 Y2.7237  
G01 X-1.2631 Y2.7289  
G01 X-1.2570 Y2.7330  
G01 X-1.2502 Y2.7358  
G01 X-1.2430 Y2.7372  
G01 X-1.2357 Y2.7372  
G01 X-1.2285 Y2.7358  
G01 X-1.2217 Y2.7330  
G01 X-1.2156 Y2.7289  
G01 X-1.2105 Y2.7237  
G01 X-1.2064 Y2.7176  
G01 X-1.2036 Y2.7109  
G01 X-1.2022 Y2.7037  
G01 X-1.2022 Y2.6963  
G01 X-1.2036 Y2.6891  
G01 X-1.2064 Y2.6824  
G01 X-1.2105 Y2.6763  
G01 X-1.2156 Y2.6711  
G01 X-1.2217 Y2.6670  
G01 X-1.2285 Y2.6642  
G01 X-1.2357 Y2.6628  
G01 X-1.2430 Y2.6628  
G01 X-1.2502 Y2.6642  
G01 X-1.2570 Y2.6670  
G01 X-1.2631 Y2.6711  
G01 X-1.2683 Y2.6763  
G01 X-1.2724 Y2.6824  
G01 X-1.2752 Y2.6891  
G01 X-1.2766 Y2.6963  
G00 Z0.1000  
G00 X-1.1978 Y2.6963  
G01 Z-0.0070 F10    
G01 X-1.1978 Y2.7037  F20    
G01 X-1.1964 Y2.7109  
G01 X-1.1936 Y2.7176  
G01 X-1.1895 Y2.7237  
G01 X-1.1844 Y2.7289  
G01 X-1.1783 Y2.7330  
G01 X-1.1715 Y2.7358  
G01 X-1.1643 Y2.7372  
G01 X-1.1570 Y2.7372  
G01 X-1.1498 Y2.7358  
G01 X-1.1430 Y2.7330  
G01 X-1.1369 Y2.7289  
G01 X-1.1317 Y2.7237  
G01 X-1.1276 Y2.7176  
G01 X-1.1248 Y2.7109  
G01 X-1.1234 Y2.7037  
G01 X-1.1234 Y2.6963  
G01 X-1.1248 Y2.6891  
G01 X-1.1276 Y2.6824  
G01 X-1.1317 Y2.6763  
G01 X-1.1369 Y2.6711  
G01 X-1.1430 Y2.6670  
G01 X-1.1498 Y2.6642  
G01 X-1.1570 Y2.6628  
G01 X-1.1643 Y2.6628  
G01 X-1.1715 Y2.6642  
G01 X-1.1783 Y2.6670  
G01 X-1.1844 Y2.6711  
G01 X-1.1895 Y2.6763  
G01 X-1.1936 Y2.6824  
G01 X-1.1964 Y2.6891  
G01 X-1.1978 Y2.6963  
G00 Z0.1000  
G00 X-2.2334 Y2.8018  
G01 Z-0.0070 F10    
G01 X-2.2334 Y2.8116  F20    
G01 X-2.2322 Y2.8213  
G01 X-2.2296 Y2.8308  
G01 X-2.2259 Y2.8398  
G01 X-2.2210 Y2.8483  
G01 X-2.2150 Y2.8561  
G01 X-2.2081 Y2.8630  
G01 X-2.2003 Y2.8690  
G01 X-2.1918 Y2.8739  
G01 X-2.1827 Y2.8777  
G01 X-2.1733 Y2.8802  
G01 X-2.1636 Y2.8815  
G01 X-2.1538 Y2.8815  
G01 X-2.1440 Y2.8802  
G01 X-2.1346 Y2.8777  
G01 X-2.1255 Y2.8739  
G01 X-2.1170 Y2.8690  
G01 X-2.1093 Y2.8630  
G01 X-2.1023 Y2.8561  
G01 X-2.0964 Y2.8483  
G01 X-2.0915 Y2.8398  
G01 X-2.0877 Y2.8308  
G01 X-2.0852 Y2.8213  
G01 X-2.0839 Y2.8116  
G01 X-2.0839 Y2.8018  
G01 X-2.0852 Y2.7921  
G01 X-2.0877 Y2.7826  
G01 X-2.0915 Y2.7735  
G01 X-2.0964 Y2.7651  
G01 X-2.1023 Y2.7573  
G01 X-2.1093 Y2.7504  
G01 X-2.1170 Y2.7444  
G01 X-2.1255 Y2.7395  
G01 X-2.1346 Y2.7357  
G01 X-2.1440 Y2.7332  
G01 X-2.1538 Y2.7319  
G01 X-2.1636 Y2.7319  
G01 X-2.1733 Y2.7332  
G01 X-2.1827 Y2.7357  
G01 X-2.1918 Y2.7395  
G01 X-2.2003 Y2.7444  
G01 X-2.2081 Y2.7504  
G01 X-2.2150 Y2.7573  
G01 X-2.2210 Y2.7651  
G01 X-2.2259 Y2.7735  
G01 X-2.2296 Y2.7826  
G01 X-2.2322 Y2.7921  
G01 X-2.2334 Y2.8018  
G00 Z0.1000  
G00 X-1.9766 Y2.6963  
G01 Z-0.0070 F10    
G01 X-1.9766 Y2.7037  F20    
G01 X-1.9752 Y2.7109  
G01 X-1.9724 Y2.7176  
G01 X-1.9683 Y2.7237  
G01 X-1.9631 Y2.7289  
G01 X-1.9570 Y2.7330  
G01 X-1.9502 Y2.7358  
G01 X-1.9430 Y2.7372  
G01 X-1.9357 Y2.7372  
G01 X-1.9285 Y2.7358  
G01 X-1.9217 Y2.7330  
G01 X-1.9156 Y2.7289  
G01 X-1.9105 Y2.7237  
G01 X-1.9064 Y2.7176  
G01 X-1.9036 Y2.7109  
G01 X-1.9022 Y2.7037  
G01 X-1.9022 Y2.6963  
G01 X-1.9036 Y2.6891  
G01 X-1.9064 Y2.6824  
G01 X-1.9105 Y2.6763  
G01 X-1.9156 Y2.6711  
G01 X-1.9217 Y2.6670  
G01 X-1.9285 Y2.6642  
G01 X-1.9357 Y2.6628  
G01 X-1.9430 Y2.6628  
G01 X-1.9502 Y2.6642  
G01 X-1.9570 Y2.6670  
G01 X-1.9631 Y2.6711  
G01 X-1.9683 Y2.6763  
G01 X-1.9724 Y2.6824  
G01 X-1.9752 Y2.6891  
G01 X-1.9766 Y2.6963  
G00 Z0.1000  
G00 X-1.8978 Y2.6963  
G01 Z-0.0070 F10    
G01 X-1.8978 Y2.7037  F20    
G01 X-1.8964 Y2.7109  
G01 X-1.8936 Y2.7176  
G01 X-1.8895 Y2.7237  
G01 X-1.8844 Y2.7289  
G01 X-1.8783 Y2.7330  
G01 X-1.8715 Y2.7358  
G01 X-1.8643 Y2.7372  
G01 X-1.8570 Y2.7372  
G01 X-1.8498 Y2.7358  
G01 X-1.8430 Y2.7330  
G01 X-1.8369 Y2.7289  
G01 X-1.8317 Y2.7237  
G01 X-1.8276 Y2.7176  
G01 X-1.8248 Y2.7109  
G01 X-1.8234 Y2.7037  
G01 X-1.8234 Y2.6963  
G01 X-1.8248 Y2.6891  
G01 X-1.8276 Y2.6824  
G01 X-1.8317 Y2.6763  
G01 X-1.8369 Y2.6711  
G01 X-1.8430 Y2.6670  
G01 X-1.8498 Y2.6642  
G01 X-1.8570 Y2.6628  
G01 X-1.8643 Y2.6628  
G01 X-1.8715 Y2.6642  
G01 X-1.8783 Y2.6670  
G01 X-1.8844 Y2.6711  
G01 X-1.8895 Y2.6763  
G01 X-1.8936 Y2.6824  
G01 X-1.8964 Y2.6891  
G01 X-1.8978 Y2.6963  
G00 Z0.1000  
G00 X-2.7011 Y2.5489  
G01 Z-0.0070 F10    
G01 X-2.6454 Y2.5489  F20    
G01 X-2.6378 Y2.5477  
G01 X-2.6305 Y2.5453  
G01 X-2.6240 Y2.5420  
G01 X-2.6148 Y2.5420  
G01 X-2.6113 Y2.5406  
G01 X-2.6087 Y2.5379  
G01 X-2.6072 Y2.5344  
G01 X-2.6072 Y2.5252  
G01 X-2.6039 Y2.5188  
G01 X-2.6015 Y2.5114  
G01 X-2.6003 Y2.5038  
G01 X-2.6003 Y2.4962  
G01 X-2.6015 Y2.4886  
G01 X-2.6039 Y2.4812  
G01 X-2.6072 Y2.4748  
G01 X-2.6072 Y2.4656  
G01 X-2.6087 Y2.4621  
G01 X-2.6113 Y2.4594  
G01 X-2.6148 Y2.4580  
G01 X-2.6240 Y2.4580  
G01 X-2.6305 Y2.4547  
G01 X-2.6378 Y2.4523  
G01 X-2.6454 Y2.4511  
G01 X-2.7011 Y2.4511  
G01 X-2.7011 Y2.3970  
G01 X-2.4635 Y2.3970  
G01 X-2.4614 Y2.3977  
G01 X-2.4538 Y2.3989  
G01 X-2.4462 Y2.3989  
G01 X-2.4386 Y2.3977  
G01 X-2.4365 Y2.3970  
G01 X-2.0989 Y2.3970  
G01 X-2.0989 Y2.4660  
G01 X-2.1009 Y2.4688  
G01 X-2.1051 Y2.4772  
G01 X-2.1080 Y2.4861  
G01 X-2.1095 Y2.4953  
G01 X-2.1095 Y2.5047  
G01 X-2.1080 Y2.5139  
G01 X-2.1051 Y2.5228  
G01 X-2.1009 Y2.5312  
G01 X-2.0954 Y2.5388  
G01 X-2.0888 Y2.5454  
G01 X-2.0867 Y2.5469  
G01 X-2.0867 Y2.7038  
G01 X-2.0855 Y2.7114  
G01 X-2.0831 Y2.7188  
G01 X-2.0796 Y2.7256  
G01 X-2.0751 Y2.7318  
G01 X-2.0696 Y2.7373  
G01 X-2.0634 Y2.7418  
G01 X-2.0566 Y2.7453  
G01 X-2.0492 Y2.7477  
G01 X-2.0416 Y2.7489  
G01 X-2.0339 Y2.7489  
G01 X-2.0264 Y2.7477  
G01 X-2.0190 Y2.7453  
G01 X-2.0122 Y2.7418  
G01 X-2.0060 Y2.7373  
G01 X-2.0005 Y2.7318  
G01 X-1.9960 Y2.7256  
G01 X-1.9925 Y2.7188  
G01 X-1.9901 Y2.7114  
G01 X-1.9889 Y2.7038  
G01 X-1.9889 Y2.5489  
G01 X-1.9454 Y2.5489  
G01 X-1.9378 Y2.5477  
G01 X-1.9305 Y2.5453  
G01 X-1.9240 Y2.5420  
G01 X-1.9148 Y2.5420  
G01 X-1.9113 Y2.5406  
G01 X-1.9087 Y2.5379  
G01 X-1.9072 Y2.5344  
G01 X-1.9072 Y2.5252  
G01 X-1.9039 Y2.5188  
G01 X-1.9015 Y2.5114  
G01 X-1.9003 Y2.5038  
G01 X-1.9003 Y2.4962  
G01 X-1.9015 Y2.4886  
G01 X-1.9039 Y2.4812  
G01 X-1.9072 Y2.4748  
G01 X-1.9072 Y2.4656  
G01 X-1.9087 Y2.4621  
G01 X-1.9113 Y2.4594  
G01 X-1.9148 Y2.4580  
G01 X-1.9240 Y2.4580  
G01 X-1.9305 Y2.4547  
G01 X-1.9378 Y2.4523  
G01 X-1.9454 Y2.4511  
G01 X-2.0011 Y2.4511  
G01 X-2.0011 Y2.3970  
G01 X-1.8135 Y2.3970  
G01 X-1.8114 Y2.3977  
G01 X-1.8038 Y2.3989  
G01 X-1.7962 Y2.3989  
G01 X-1.7886 Y2.3977  
G01 X-1.7865 Y2.3970  
G01 X-1.3989 Y2.3970  
G01 X-1.3989 Y2.4660  
G01 X-1.4009 Y2.4688  
G01 X-1.4051 Y2.4772  
G01 X-1.4080 Y2.4861  
G01 X-1.4095 Y2.4953  
G01 X-1.4095 Y2.5047  
G01 X-1.4080 Y2.5139  
G01 X-1.4051 Y2.5228  
G01 X-1.4009 Y2.5312  
G01 X-1.3989 Y2.5340  
G01 X-1.3989 Y2.6916  
G01 X-1.3977 Y2.6992  
G01 X-1.3953 Y2.7066  
G01 X-1.3918 Y2.7134  
G01 X-1.3873 Y2.7196  
G01 X-1.3696 Y2.7373  
G01 X-1.3634 Y2.7418  
G01 X-1.3566 Y2.7453  
G01 X-1.3492 Y2.7477  
G01 X-1.3416 Y2.7489  
G01 X-1.3339 Y2.7489  
G01 X-1.3264 Y2.7477  
G01 X-1.3190 Y2.7453  
G01 X-1.3122 Y2.7418  
G01 X-1.3060 Y2.7373  
G01 X-1.3005 Y2.7318  
G01 X-1.2960 Y2.7256  
G01 X-1.2925 Y2.7188  
G01 X-1.2901 Y2.7114  
G01 X-1.2889 Y2.7038  
G01 X-1.2889 Y2.6962  
G01 X-1.2901 Y2.6886  
G01 X-1.2925 Y2.6812  
G01 X-1.2960 Y2.6744  
G01 X-1.3005 Y2.6682  
G01 X-1.3011 Y2.6676  
G01 X-1.3011 Y2.5489  
G01 X-1.2454 Y2.5489  
G01 X-1.2378 Y2.5477  
G01 X-1.2305 Y2.5453  
G01 X-1.2240 Y2.5420  
G01 X-1.2148 Y2.5420  
G01 X-1.2113 Y2.5406  
G01 X-1.2087 Y2.5379  
G01 X-1.2072 Y2.5344  
G01 X-1.2072 Y2.5252  
G01 X-1.2039 Y2.5188  
G01 X-1.2015 Y2.5114  
G01 X-1.2003 Y2.5038  
G01 X-1.2003 Y2.4962  
G01 X-1.2015 Y2.4886  
G01 X-1.2039 Y2.4812  
G01 X-1.2072 Y2.4748  
G01 X-1.2072 Y2.4656  
G01 X-1.2087 Y2.4621  
G01 X-1.2113 Y2.4594  
G01 X-1.2148 Y2.4580  
G01 X-1.2240 Y2.4580  
G01 X-1.2305 Y2.4547  
G01 X-1.2378 Y2.4523  
G01 X-1.2454 Y2.4511  
G01 X-1.3011 Y2.4511  
G01 X-1.3011 Y2.3970  
G01 X-1.1135 Y2.3970  
G01 X-1.1114 Y2.3977  
G01 X-1.1038 Y2.3989  
G01 X-1.0962 Y2.3989  
G01 X-1.0886 Y2.3977  
G01 X-1.0865 Y2.3970  
G01 X-0.6989 Y2.3970  
G01 X-0.6989 Y2.4660  
G01 X-0.7009 Y2.4688  
G01 X-0.7051 Y2.4772  
G01 X-0.7080 Y2.4861  
G01 X-0.7095 Y2.4953  
G01 X-0.7095 Y2.5047  
G01 X-0.7080 Y2.5139  
G01 X-0.7051 Y2.5228  
G01 X-0.7009 Y2.5312  
G01 X-0.6989 Y2.5340  
G01 X-0.6989 Y2.6916  
G01 X-0.6977 Y2.6992  
G01 X-0.6953 Y2.7066  
G01 X-0.6918 Y2.7134  
G01 X-0.6873 Y2.7196  
G01 X-0.6696 Y2.7373  
G01 X-0.6634 Y2.7418  
G01 X-0.6566 Y2.7453  
G01 X-0.6492 Y2.7477  
G01 X-0.6416 Y2.7489  
G01 X-0.6339 Y2.7489  
G01 X-0.6264 Y2.7477  
G01 X-0.6190 Y2.7453  
G01 X-0.6122 Y2.7418  
G01 X-0.6060 Y2.7373  
G01 X-0.6005 Y2.7318  
G01 X-0.5960 Y2.7256  
G01 X-0.5925 Y2.7188  
G01 X-0.5901 Y2.7114  
G01 X-0.5889 Y2.7038  
G01 X-0.5889 Y2.6962  
G01 X-0.5901 Y2.6886  
G01 X-0.5925 Y2.6812  
G01 X-0.5960 Y2.6744  
G01 X-0.6005 Y2.6682  
G01 X-0.6011 Y2.6676  
G01 X-0.6011 Y2.5489  
G01 X-0.5454 Y2.5489  
G01 X-0.5378 Y2.5477  
G01 X-0.5305 Y2.5453  
G01 X-0.5240 Y2.5420  
G01 X-0.5148 Y2.5420  
G01 X-0.5113 Y2.5406  
G01 X-0.5087 Y2.5379  
G01 X-0.5072 Y2.5344  
G01 X-0.5072 Y2.5252  
G01 X-0.5039 Y2.5188  
G01 X-0.5015 Y2.5114  
G01 X-0.5003 Y2.5038  
G01 X-0.5003 Y2.4962  
G01 X-0.5015 Y2.4886  
G01 X-0.5039 Y2.4812  
G01 X-0.5072 Y2.4748  
G01 X-0.5072 Y2.4656  
G01 X-0.5087 Y2.4621  
G01 X-0.5113 Y2.4594  
G01 X-0.5148 Y2.4580  
G01 X-0.5240 Y2.4580  
G01 X-0.5305 Y2.4547  
G01 X-0.5378 Y2.4523  
G01 X-0.5454 Y2.4511  
G01 X-0.6011 Y2.4511  
G01 X-0.6011 Y2.3978  
G01 X-0.5955 Y2.3978  
G01 X-0.5905 Y2.3970  
G01 X-0.5635 Y2.3970  
G01 X-0.5614 Y2.3977  
G01 X-0.5538 Y2.3989  
G01 X-0.5462 Y2.3989  
G01 X-0.5386 Y2.3977  
G01 X-0.5365 Y2.3970  
G01 X-0.3365 Y2.3970  
G01 X-0.3312 Y2.4009  
G01 X-0.3228 Y2.4051  
G01 X-0.3139 Y2.4080  
G01 X-0.3047 Y2.4095  
G01 X-0.2596 Y2.4095  
G01 X-0.2489 Y2.4202  
G01 X-0.2489 Y2.4660  
G01 X-0.2509 Y2.4688  
G01 X-0.2551 Y2.4772  
G01 X-0.2580 Y2.4861  
G01 X-0.2595 Y2.4953  
G01 X-0.2595 Y2.5047  
G01 X-0.2580 Y2.5139  
G01 X-0.2551 Y2.5228  
G01 X-0.2509 Y2.5312  
G01 X-0.2454 Y2.5388  
G01 X-0.2388 Y2.5454  
G01 X-0.2312 Y2.5509  
G01 X-0.2228 Y2.5551  
G01 X-0.2139 Y2.5580  
G01 X-0.2047 Y2.5595  
G01 X-0.1953 Y2.5595  
G01 X-0.1861 Y2.5580  
G01 X-0.1772 Y2.5551  
G01 X-0.1688 Y2.5509  
G01 X-0.1612 Y2.5454  
G01 X-0.1546 Y2.5388  
G01 X-0.1491 Y2.5312  
G01 X-0.1449 Y2.5228  
G01 X-0.1420 Y2.5139  
G01 X-0.1405 Y2.5047  
G01 X-0.1405 Y2.4953  
G01 X-0.1420 Y2.4861  
G01 X-0.1449 Y2.4772  
G01 X-0.1491 Y2.4688  
G01 X-0.1511 Y2.4660  
G01 X-0.1511 Y2.3962  
G01 X-0.1523 Y2.3886  
G01 X-0.1547 Y2.3812  
G01 X-0.1582 Y2.3744  
G01 X-0.1627 Y2.3682  
G01 X-0.1914 Y2.3395  
G01 X-0.1920 Y2.3361  
G01 X-0.1949 Y2.3272  
G01 X-0.1991 Y2.3188  
G01 X-0.2046 Y2.3112  
G01 X-0.2112 Y2.3046  
G01 X-0.2188 Y2.2991  
G01 X-0.2272 Y2.2949  
G01 X-0.2361 Y2.2920  
G01 X-0.2453 Y2.2905  
G01 X-0.3047 Y2.2905  
G01 X-0.3139 Y2.2920  
G01 X-0.3228 Y2.2949  
G01 X-0.3312 Y2.2991  
G01 X-0.3337 Y2.3009  
G01 X-0.3399 Y2.3009  
G01 X-0.3434 Y2.3024  
G01 X-0.3440 Y2.3030  
G01 X-0.5019 Y2.3030  
G01 X-0.5019 Y2.1702  
G01 X-0.3749 Y2.0433  
G01 X-0.3704 Y2.0370  
G01 X-0.3669 Y2.0302  
G01 X-0.3645 Y2.0229  
G01 X-0.3633 Y2.0153  
G01 X-0.3633 Y1.9462  
G01 X-0.3645 Y1.9386  
G01 X-0.3669 Y1.9312  
G01 X-0.3704 Y1.9244  
G01 X-0.3749 Y1.9182  
G01 X-0.3804 Y1.9127  
G01 X-0.3866 Y1.9082  
G01 X-0.3934 Y1.9047  
G01 X-0.4008 Y1.9023  
G01 X-0.4084 Y1.9011  
G01 X-0.4161 Y1.9011  
G01 X-0.4236 Y1.9023  
G01 X-0.4310 Y1.9047  
G01 X-0.4378 Y1.9082  
G01 X-0.4440 Y1.9127  
G01 X-0.4495 Y1.9182  
G01 X-0.4540 Y1.9244  
G01 X-0.4575 Y1.9312  
G01 X-0.4599 Y1.9386  
G01 X-0.4611 Y1.9462  
G01 X-0.4611 Y1.9912  
G01 X-0.5779 Y2.1080  
G01 X-0.5852 Y2.1080  
G01 X-0.5887 Y2.1094  
G01 X-0.5913 Y2.1121  
G01 X-0.5928 Y2.1156  
G01 X-0.5928 Y2.1248  
G01 X-0.5961 Y2.1312  
G01 X-0.5985 Y2.1386  
G01 X-0.5997 Y2.1462  
G01 X-0.5997 Y2.3030  
G01 X-0.6365 Y2.3030  
G01 X-0.6386 Y2.3023  
G01 X-0.6462 Y2.3011  
G01 X-0.6538 Y2.3011  
G01 X-0.6614 Y2.3023  
G01 X-0.6635 Y2.3030  
G01 X-1.0511 Y2.3030  
G01 X-1.0511 Y2.1840  
G01 X-1.0491 Y2.1812  
G01 X-1.0449 Y2.1728  
G01 X-1.0420 Y2.1639  
G01 X-1.0405 Y2.1547  
G01 X-1.0405 Y2.1453  
G01 X-1.0420 Y2.1361  
G01 X-1.0449 Y2.1272  
G01 X-1.0491 Y2.1188  
G01 X-1.0546 Y2.1112  
G01 X-1.0612 Y2.1046  
G01 X-1.0633 Y2.1031  
G01 X-1.0633 Y1.9462  
G01 X-1.0645 Y1.9386  
G01 X-1.0669 Y1.9312  
G01 X-1.0704 Y1.9244  
G01 X-1.0749 Y1.9182  
G01 X-1.0804 Y1.9127  
G01 X-1.0866 Y1.9082  
G01 X-1.0934 Y1.9047  
G01 X-1.1008 Y1.9023  
G01 X-1.1084 Y1.9011  
G01 X-1.1161 Y1.9011  
G01 X-1.1236 Y1.9023  
G01 X-1.1310 Y1.9047  
G01 X-1.1378 Y1.9082  
G01 X-1.1440 Y1.9127  
G01 X-1.1495 Y1.9182  
G01 X-1.1540 Y1.9244  
G01 X-1.1575 Y1.9312  
G01 X-1.1599 Y1.9386  
G01 X-1.1611 Y1.9462  
G01 X-1.1611 Y2.1011  
G01 X-1.2046 Y2.1011  
G01 X-1.2122 Y2.1023  
G01 X-1.2195 Y2.1047  
G01 X-1.2260 Y2.1080  
G01 X-1.2352 Y2.1080  
G01 X-1.2387 Y2.1094  
G01 X-1.2413 Y2.1121  
G01 X-1.2428 Y2.1156  
G01 X-1.2428 Y2.1248  
G01 X-1.2461 Y2.1312  
G01 X-1.2485 Y2.1386  
G01 X-1.2497 Y2.1462  
G01 X-1.2497 Y2.1538  
G01 X-1.2485 Y2.1614  
G01 X-1.2461 Y2.1688  
G01 X-1.2428 Y2.1752  
G01 X-1.2428 Y2.1844  
G01 X-1.2413 Y2.1879  
G01 X-1.2387 Y2.1906  
G01 X-1.2352 Y2.1920  
G01 X-1.2260 Y2.1920  
G01 X-1.2195 Y2.1953  
G01 X-1.2122 Y2.1977  
G01 X-1.2046 Y2.1989  
G01 X-1.1489 Y2.1989  
G01 X-1.1489 Y2.3030  
